saniya2912/pi0.5_mujoco/data/baxter/diagnostics.csv
step,policy_action_0,policy_action_1,policy_action_2,policy_action_3,policy_action_4,policy_action_5,policy_action_6,qpos_0,qpos_1,qpos_2,qpos_3,qpos_4,qpos_5,qpos_6,qpos_7,qpos_8,qpos_9,qpos_10,qpos_11,qpos_12,qpos_13,qpos_14,ctrl_0,ctrl_1,ctrl_2,ctrl_3,ctrl_4,ctrl_5,ctrl_6,ctrl_7,ctrl_8,ctrl_9,ctrl_10,ctrl_11,ctrl_12,ctrl_13,ctrl_14
0,-0.3600084644660056,0.5710719076652526,-0.6704746575561762,-0.044905961600869376,-0.0012727552367483852,0.07142342354936992,-0.9965297947695255,-0.00045687847234503654,0.0010411880469036725,-0.9588295504219315,6.966717626733425e-05,2.000535733713186,-0.0017379280988791593,0.7853143932102511,0.0061740010551721985,-6.258413298349197e-05,-0.9601051318745081,-0.0011288963254310479,1.9996492183277739,-0.0004324724966955742,0.7858994433168297,-0.0020603426487232177,-0.36000847816467285,0.5710719227790833,-0.670474648475647,-0.04490596055984497,-0.0012727552093565464,0.07142342627048492,-0.9965298175811768,0.0,0.0,0.0,0.0,0.0,0.0,0.0,0.0
1,-0.3600084644660056,0.5710719076652526,-0.6704746575561762,-0.044905961600869376,-0.0012727552367483852,0.07142342354936992,-0.9965297947695255,-0.0015187887403279412,0.004029183348331789,-0.9558791460328568,0.0002716596658696705,2.002074738088545,-0.005671565622637443,0.7846554775313046,0.01917898010168528,-0.0007245266286606293,-0.9605715965816845,-0.004313362551984563,1.9984675348100525,-0.0022813357449880146,0.7874679870905121,-0.0070688499141694176,-0.34903109073638916,0.6887655854225159,-0.6215697526931763,-0.05258406326174736,-0.0009874476818367839,0.06279989331960678,-0.9982141256332397,0.0,0.0,0.0,0.0,0.0,0.0,0.0,0.0
2,-0.3600084644660056,0.5710719076652526,-0.6704746575561762,-0.044905961600869376,-0.0012727552367483852,0.07142342354936992,-0.9965297947695255,-0.0028726235226684575,0.008656494547644004,-0.9514068912420641,0.0005751658220995834,2.004445197207079,-0.011028474286664498,0.7833503888047414,0.035242144482547054,-0.002115535297980797,-0.961191653181649,-0.009206122041748251,1.9965467689213727,-0.005316020214198044,0.7900721316018648,-0.013749906067464599,-0.3085213899612427,0.7199704647064209,-0.5186008214950562,-0.05550080165266991,0.0033766007982194424,0.06418104469776154,-0.9967779517173767,0.0,0.0,0.0,0.0,0.0,0.0,0.0,0.0
3,-0.3600084644660056,0.5710719076652526,-0.6704746575561762,-0.044905961600869376,-0.0012727552367483852,0.07142342354936992,-0.9965297947695255,-0.004314167925828517,0.014634506390180503,-0.9457144137864055,0.000947204831703734,2.007467595531231,-0.017477444855750632,0.7814787004916016,0.05294311831366981,-0.004155991604024793,-0.9618948894195966,-0.015482196207804761,1.994048785348155,-0.009047705269030872,0.7936455826825576,-0.02120516888548367,-0.20974688231945038,0.6447657346725464,-0.3800945580005646,-0.059603285044431686,0.009870940819382668,0.06800491362810135,-0.9992576837539673,0.0,0.0,0.0,0.0,0.0,0.0,0.0,0.0
4,-0.3600084644660056,0.5710719076652526,-0.6704746575561762,-0.044905961600869376,-0.0012727552367483852,0.07142342354936992,-0.9965297947695255,-0.0056883501220205464,0.021732874959956544,-0.9390512724103633,0.0013566112468246603,2.0109851806706254,-0.02476026553467659,0.779106324581746,0.07161673194342898,-0.00675621242614328,-0.9626199771506029,-0.022863156571033234,1.9911019191345252,-0.013104436402298036,0.7980894438658982,-0.02888089631128559,-0.04077322781085968,0.43127816915512085,-0.17824618518352509,-0.058868031948804855,0.014196657575666904,0.049355484545230865,-1.0059880018234253,0.0,0.0,0.0,0.0,0.0,0.0,0.0,0.0
5,-0.3600084644660056,0.5710719076652526,-0.6704746575561762,-0.044905961600869376,-0.0012727552367483852,0.07142342354936992,-0.9965297947695255,-0.006957321479034197,0.029768145905996926,-0.9316254565039246,0.0017705627741201923,2.014862318024573,-0.032674952851061034,0.7762957716997709,0.09097344249903208,-0.009821291411613945,-0.9633165171296527,-0.031112889822985566,1.9878106179424015,-0.017198366777851696,0.8032966506933614,-0.036408399020662945,-0.017599062994122505,0.31554844975471497,-0.10957946628332138,-0.05122269690036774,0.001710743410512805,0.03524372726678848,-1.0021296739578247,0.0,0.0,0.0,0.0,0.0,0.0,0.0,0.0
6,-0.3600084644660056,0.5710719076652526,-0.6704746575561762,-0.044905961600869376,-0.0012727552367483852,0.07142342354936992,-0.9965297947695255,-0.008167844049995715,0.03859686933313206,-0.923606411820456,0.002156129802612386,2.0189818435983478,-0.04106103770804719,0.7731007822029258,0.11091618307680132,-0.013256337382757548,-0.9639451128025968,-0.040030766896275397,1.9842609882132802,-0.02111417628410431,0.8091532066812716,-0.043523928323738754,-0.028941811993718147,0.23110078275203705,-0.08441726118326187,-0.04084472358226776,-0.003234229050576687,0.027891047298908234,-1.0002195835113525,0.0,0.0,0.0,0.0,0.0,0.0,0.0,0.0
7,-0.3600084644660056,0.5710719076652526,-0.6704746575561762,-0.044905961600869376,-0.0012727552367483852,0.07142342354936992,-0.9965297947695255,-0.009364198437203047,0.04810948366429438,-0.9151283133559054,0.0024832880938555754,2.0232466198160557,-0.04978452525298212,0.769556959402364,0.13134546509629877,-0.016969226367740304,-0.9644764352360103,-0.04944340478672084,1.9805234522451034,-0.024712212284584482,0.815531220650375,-0.05004237564531184,-0.06159502640366554,0.21454690396785736,-0.09827101230621338,-0.03371585160493851,-0.006887964438647032,0.028125036507844925,-0.9995086193084717,0.0,0.0,0.0,0.0,0.0,0.0,0.0,0.0
8,-0.3600084644660056,0.5710719076652526,-0.6704746575561762,-0.044905961600869376,-0.0012727552367483852,0.07142342354936992,-0.9965297947695255,-0.010555522269738273,0.0582192750403016,-0.9063010222367786,0.0027268079155875306,2.027575523298055,-0.05873130262330479,0.7656912915969135,0.15224310602159474,-0.020869704471597222,-0.9648910822111443,-0.05920204601821474,1.9766566434355701,-0.027907958350647744,0.8223014809463062,-0.055827892846686655,-0.05052492395043373,0.23269164562225342,-0.08045592904090881,-0.035191163420677185,-0.006062268745154142,0.02895570546388626,-1.0026243925094604,0.0,0.0,0.0,0.0,0.0,0.0,0.0,0.0
9,-0.3600084644660056,0.5710719076652526,-0.6704746575561762,-0.044905961600869376,-0.0012727552367483852,0.07142342354936992,-0.9965297947695255,-0.011733315409980714,0.06885450763037022,-0.8972173387739449,0.0028656588477393736,2.0319009605480924,-0.06780539461500654,0.7615332384674214,0.1736108374325497,-0.02487205004205903,-0.9651778301419635,-0.06917587411056787,1.97270852678416,-0.030675111290445995,0.8293239253693908,-0.06079620626332243,-0.04735496640205383,0.252175509929657,-0.08060235530138016,-0.037995222955942154,-0.005711744539439678,0.03082791529595852,-1.0036848783493042,0.0,0.0,0.0,0.0,0.0,0.0,0.0,0.0
10,-0.503854985526234,0.10326939137876023,-0.5745549774855375,0.02399182362235691,-0.11290372759956602,0.1881864128933159,-0.9929443371534944,-0.013095376658267762,0.07994947252704487,-0.8879590779355346,0.002883875832884209,2.0361655997451997,-0.07693251639433665,0.7571208833047416,0.19543356683063878,-0.028870630930224416,-0.9653391003473282,-0.07926022802815798,1.9687392573792446,-0.033127230673275075,0.8363895479100628,-0.06478734602620273,-0.5038549900054932,0.10326939076185226,-0.574554979801178,0.023991823196411133,-0.11290372908115387,0.1881864070892334,-0.9929443597793579,0.0,0.0,0.0,0.0,0.0,0.0,0.0,0.0
11,-0.503854985526234,0.10326939137876023,-0.5745549774855375,0.02399182362235691,-0.11290372759956602,0.1881864128933159,-0.9929443371534944,-0.014635866697754605,0.09145405982594924,-0.8785911356402597,0.0027692012159107856,2.0403247498901877,-0.08603796683813254,0.7524722111302307,0.21765883381377782,-0.032697875502314316,-0.965442680984747,-0.08940899361869992,1.9648961566182732,-0.03581765345229371,0.8429048112442269,-0.06744056950200825,-0.3582887053489685,0.24731558561325073,-0.5293996930122375,-0.0006553524872288108,-0.0762939602136612,0.17775024473667145,-0.9998058676719666,0.0,0.0,0.0,0.0,0.0,0.0,0.0,0.0
12,-0.503854985526234,0.10326939137876023,-0.5745549774855375,0.02399182362235691,-0.11290372759956602,0.1881864128933159,-0.9929443371534944,-0.016133487908984053,0.10332633219867993,-0.8691664041063026,0.00251327149662623,2.0443426764757273,-0.09505999935638451,0.7476042369685967,0.2402422644632341,-0.036229273616749304,-0.9656057125199101,-0.09960143226877097,1.961311720423739,-0.03904807162706364,0.8483673346481072,-0.0688608958303579,-0.18882527947425842,0.35305383801460266,-0.4664599299430847,-0.006431732792407274,-0.05008361116051674,0.15003487467765808,-0.9994219541549683,0.0,0.0,0.0,0.0,0.0,0.0,0.0,0.0
13,-0.503854985526234,0.10326939137876023,-0.5745549774855375,0.02399182362235691,-0.11290372759956602,0.1881864128933159,-0.9929443371534944,-0.017530116508257785,0.11552545224283833,-0.859731425940382,0.002111671534751072,2.048190331079391,-0.10395074361017392,0.7425423081467564,0.2631372413993725,-0.03944779045068398,-0.965847143545602,-0.10975578352542976,1.9579555327400573,-0.04247288896612406,0.8529471346167957,-0.06948690421242538,-0.1675766557455063,0.3151586651802063,-0.37063008546829224,-0.01481411699205637,-0.02155105583369732,0.1577698439359665,-1.000412106513977,0.0,0.0,0.0,0.0,0.0,0.0,0.0,0.0
14,-0.503854985526234,0.10326939137876023,-0.5745549774855375,0.02399182362235691,-0.11290372759956602,0.1881864128933159,-0.9929443371534944,-0.01885535932928439,0.12801690909994848,-0.8503244144988489,0.0015626663831278084,2.0518465420479353,-0.11266207016640839,0.737306526212752,0.2862788121940842,-0.04237668508746521,-0.9661711828488357,-0.11979534096560271,1.9548037993514258,-0.04589110741116052,0.8568095062392694,-0.06970488708326017,-0.16853787004947662,0.2573373317718506,-0.2859587073326111,-0.020693620666861534,-0.010295988060534,0.16524426639080048,-0.998143196105957,0.0,0.0,0.0,0.0,0.0,0.0,0.0,0.0
15,-0.503854985526234,0.10326939137876023,-0.5745549774855375,0.02399182362235691,-0.11290372759956602,0.1881864128933159,-0.9929443371534944,-0.020134422067262046,0.14076556122612868,-0.8409786909758334,0.0008680955231643337,2.0552944272579983,-0.12116006696594393,0.7319206272636198,0.30961335963839953,-0.045056426687343866,-0.966566868873788,-0.12965075065811707,1.9518344642707115,-0.0491953114538611,0.8601165133522009,-0.06978803355011762,-0.1787533462047577,0.21287116408348083,-0.22878886759281158,-0.026232797652482986,-0.012378881685435772,0.15843547880649567,-0.9987094402313232,0.0,0.0,0.0,0.0,0.0,0.0,0.0,0.0
16,-0.503854985526234,0.10326939137876023,-0.5745549774855375,0.02399182362235691,-0.11290372759956602,0.1881864128933159,-0.9929443371534944,-0.02139128998446609,0.1537342090919534,-0.8317234630322856,3.41547197141161e-05,2.058519336585059,-0.12943473546727502,0.7264074110659517,0.33307021608258197,-0.04752374836089826,-0.9670241103858986,-0.13926536958807265,1.9490294013960492,-0.05232211213146669,0.8629879725487684,-0.06982487495544638,-0.21097391843795776,0.18079239130020142,-0.20843228697776794,-0.031769443303346634,-0.014585242606699467,0.1589222550392151,-0.9937620759010315,0.0,0.0,0.0,0.0,0.0,0.0,0.0,0.0
17,-0.503854985526234,0.10326939137876023,-0.5745549774855375,0.02399182362235691,-0.11290372759956602,0.1881864128933159,-0.9929443371534944,-0.02266050538070811,0.16689340243978262,-0.8225803605910206,-0.0009307614212728246,2.061511588724017,-0.1374794647309298,0.7207736816076082,0.35654115874064507,-0.04981113389308867,-0.9675337506633636,-0.14859402364208693,1.946373263991055,-0.055236684184449075,0.8655114715058845,-0.06984608425291083,-0.2789558172225952,0.19064411520957947,-0.2387685477733612,-0.0341617688536644,-0.015345940366387367,0.18617747724056244,-0.9988071918487549,0.0,0.0,0.0,0.0,0.0,0.0,0.0,0.0
18,-0.503854985526234,0.10326939137876023,-0.5745549774855375,0.02399182362235691,-0.11290372759956602,0.1881864128933159,-0.9929443371534944,-0.023957701595293257,0.18021601213376062,-0.8135682771640091,-0.0020180863765061853,2.0642657506939486,-0.1452843954720354,0.7150351750428126,0.3799555829198375,-0.05194620116599106,-0.9680878548828641,-0.15760226153362525,1.9438542141273243,-0.05792512855395114,0.8677526128170544,-0.06986210028501906,-0.3138538599014282,0.2212315946817398,-0.2259601503610611,-0.04017284885048866,-0.008573489263653755,0.21208681166172028,-0.999026358127594,0.0,0.0,0.0,0.0,0.0,0.0,0.0,0.0
19,-0.503854985526234,0.10326939137876023,-0.5745549774855375,0.02399182362235691,-0.11290372759956602,0.1881864128933159,-0.9929443371534944,-0.02526025163377468,0.19367552500968674,-0.8047031082263373,-0.003218561228736748,2.0667795816342878,-0.1528405148864805,0.7092081814670416,0.4032533828755096,-0.05395172067246756,-0.968679811424047,-0.16626530188037683,1.9414639058495997,-0.060388162522815245,0.869761828290522,-0.06987634537816635,-0.3027862310409546,0.22481684386730194,-0.21796920895576477,-0.040049854665994644,-0.0024306238628923893,0.22271981835365295,-1.0013132095336914,0.0,0.0,0.0,0.0,0.0,0.0,0.0,0.0
20,-0.2255533899834753,0.10255877509856215,-0.33967676084196574,-0.00922954626180579,-0.017547057738190736,0.07773201721054485,-1.0003151264812946,-0.026512989638372928,0.20724252928010825,-0.7959987503849515,-0.00452078727990476,2.0690517289025685,-0.16015033521507074,0.7033123354318205,0.426377007173589,-0.055846830536770455,-0.9693036694855093,-0.1745658031746215,1.939194338078389,-0.06263197237768882,0.871574764201524,-0.0698899096252423,-0.22555339336395264,0.10255877673625946,-0.33967676758766174,-0.009229546412825584,-0.017547057941555977,0.07773201912641525,-1.0003150701522827,0.0,0.0,0.0,0.0,0.0,0.0,0.0,0.0
21,-0.2255533899834753,0.10255877509856215,-0.33967676084196574,-0.00922954626180579,-0.017547057738190736,0.07773201721054485,-1.0003151264812946,-0.027690932343684322,0.22088980178763767,-0.7874654795270623,-0.005911768564255536,2.0710828471926157,-0.16721943701645894,0.6973703650656319,0.4492773194257514,-0.05764642555824033,-0.9699547415627108,-0.1824937728773839,1.9370412677283775,-0.06467229911129796,0.8732212163934832,-0.0699029316252161,-0.20996445417404175,0.1008901447057724,-0.29969558119773865,-0.008195558562874794,-0.019438551738858223,0.07540042698383331,-1.0014333724975586,0.0,0.0,0.0,0.0,0.0,0.0,0.0,0.0
22,-0.2255533899834753,0.10255877509856215,-0.33967676084196574,-0.00922954626180579,-0.017547057738190736,0.07773201721054485,-1.0003151264812946,-0.02879227697234717,0.2345955952474712,-0.7791089150268501,-0.007377764923435963,2.07287701086586,-0.1740462549462311,0.691404599976887,0.47192717336055234,-0.059362976319194766,-0.9706287875927898,-0.19004442509583114,1.934998802256712,-0.06652094927120987,0.8747203841123,-0.06991559222676604,-0.17156144976615906,0.1102604866027832,-0.2299848347902298,-0.011365775018930435,-0.012362807057797909,0.06776261329650879,-1.0015932321548462,0.0,0.0,0.0,0.0,0.0,0.0,0.0,0.0
23,-0.2255533899834753,0.10255877509856215,-0.33967676084196574,-0.00922954626180579,-0.017547057738190736,0.07773201721054485,-1.0003151264812946,-0.029808034563235077,0.24834230523239026,-0.7709312978373795,-0.008906108086865972,2.0744412168802313,-0.18062235220728626,0.685423700167485,0.49427845082643646,-0.061006901924089786,-0.9713218046629621,-0.19721699992290923,1.9330598766991098,-0.06818867981469727,0.8760838659891399,-0.06992778619159323,-0.13089236617088318,0.1339065134525299,-0.1707158237695694,-0.021309446543455124,-0.007246688008308411,0.06011810898780823,-1.0024328231811523,0.0,0.0,0.0,0.0,0.0,0.0,0.0,0.0
24,-0.2255533899834753,0.10255877509856215,-0.33967676084196574,-0.00922954626180579,-0.017547057738190736,0.07773201721054485,-1.0003151264812946,-0.030751387656471844,0.26211084873938917,-0.7629352653795893,-0.010484931275929137,2.075782630562925,-0.18694374249521295,0.6794405001505768,0.5162958357120999,-0.0625854755060519,-0.9720310027839566,-0.20401553282278617,1.931221449264647,-0.06969311230200044,0.8773246205681052,-0.06993934720766722,-0.13488589227199554,0.17486844956874847,-0.1668344885110855,-0.024228595197200775,-0.007222968153655529,0.05726876109838486,-1.0020253658294678,0.0,0.0,0.0,0.0,0.0,0.0,0.0,0.0
25,-0.2255533899834753,0.10255877509856215,-0.33967676084196574,-0.00922954626180579,-0.017547057738190736,0.07773201721054485,-1.0003151264812946,-0.031652915788231026,0.2758818869973909,-0.7551233434659433,-0.012103182445495077,2.0769094209061594,-0.19300645927784837,0.6734677215740179,0.5379443595507435,-0.0641045532320183,-0.9727539405340805,-0.2104467842989372,1.9294797822174323,-0.07104885153601777,0.8784514182311942,-0.06995025082187507,-0.16016271710395813,0.21465377509593964,-0.16832450032234192,-0.021651389077305794,-0.007027850486338139,0.05571015551686287,-1.0040704011917114,0.0,0.0,0.0,0.0,0.0,0.0,0.0,0.0
26,-0.2255533899834753,0.10255877509856215,-0.33967676084196574,-0.00922954626180579,-0.017547057738190736,0.07773201721054485,-1.0003151264812946,-0.03254595391758849,0.28963725619053343,-0.7474970717869367,-0.013750656554452362,2.0778310299382308,-0.19880393407168565,0.6675136956434966,0.5591867982945544,-0.06556885594887177,-0.9734884342467038,-0.21651959188343217,1.9278305780456462,-0.07226849795762022,0.8794700035028864,-0.06996045401380437,-0.2098652571439743,0.2618672847747803,-0.21010765433311462,-0.01057517807930708,-0.0069824266247451305,0.06320681422948837,-0.9996404051780701,0.0,0.0,0.0,0.0,0.0,0.0,0.0,0.0
27,-0.2255533899834753,0.10255877509856215,-0.33967676084196574,-0.00922954626180579,-0.017547057738190736,0.07773201721054485,-1.0003151264812946,-0.03345827754410241,0.30335956167758865,-0.7400572185743785,-0.015417885680766645,2.0785576597425273,-0.20432834014859322,0.6615839572303766,0.5799899914420411,-0.06698152796588631,-0.9742329839754738,-0.2222451647095664,1.9262712585513,-0.07336661516692944,0.8803870251551481,-0.06996987850839932,-0.2642936408519745,0.305694580078125,-0.2675587832927704,-0.003041099524125457,-0.00942897330969572,0.07589425146579742,-0.9986129403114319,0.0,0.0,0.0,0.0,0.0,0.0,0.0,0.0
28,-0.2255533899834753,0.10255877509856215,-0.33967676084196574,-0.00922954626180579,-0.017547057738190736,0.07773201721054485,-1.0003151264812946,-0.03441839795423388,0.3170289197290033,-0.7328056637652648,-0.01709569670962974,2.07909925671854,-0.20957564325346037,0.6556904607873224,0.6003332726013597,-0.06834484323682527,-0.9749864607714279,-0.22763615470833973,1.924799458710343,-0.07435672416170883,0.8812083485089907,-0.06997848204327481,-0.3483595848083496,0.3472970426082611,-0.357305645942688,0.001452545402571559,-0.012091245502233505,0.10671533644199371,-0.9980438351631165,0.0,0.0,0.0,0.0,0.0,0.0,0.0,0.0
29,-0.2255533899834753,0.10255877509856215,-0.33967676084196574,-0.00922954626180579,-0.017547057738190736,0.07773201721054485,-1.0003151264812946,-0.035439288102046156,0.3306281220035624,-0.7257423505038507,-0.018775644303251997,2.0794671304185033,-0.21453657166483955,0.6498357153737269,0.6201877277439938,-0.06966066176258051,-0.975747900696037,-0.2327059581421432,1.923412206612188,-0.07524973764487641,0.8819382152251432,-0.06998630067062124,-0.4026585519313812,0.344897985458374,-0.40488022565841675,0.0018523725448176265,-0.013012739829719067,0.1358201503753662,-1.0004501342773438,0.0,0.0,0.0,0.0,0.0,0.0,0.0,0.0
30,-0.02753043180853143,0.08267711116695398,-0.05140580023640395,-0.032310582664525814,0.026916699831188662,0.00041051976356037967,-1.0028232662968635,-0.036346965461862765,0.34413910714871776,-0.7188656473305125,-0.020449698026212583,2.079672286771089,-0.2192040423155665,0.6440169250110909,0.6395256023443885,-0.07093041758277502,-0.9765165527782943,-0.23746857785695585,1.9221065069244279,-0.07605559719023941,0.8825803323243923,-0.06999332076779131,-0.027530431747436523,0.08267711102962494,-0.05140579864382744,-0.03231058269739151,0.02691669948399067,0.00041051977314054966,-1.0028232336044312,0.0,0.0,0.0,0.0,0.0,0.0,0.0,0.0
31,-0.02753043180853143,0.08267711116695398,-0.05140580023640395,-0.032310582664525814,0.026916699831188662,0.00041051976356037967,-1.0028232662968635,-0.037044212952007924,0.357546423959638,-0.7121728701355597,-0.022110313467091254,2.07972669826076,-0.22356718628093886,0.6382283254628763,0.6583213335578488,-0.07215499097910799,-0.9772919980377712,-0.2419386546966469,1.9208801152897825,-0.07678480432428232,0.8831391431147508,-0.06999951480729506,0.01655077561736107,0.10176171362400055,0.005450437311083078,-0.028560929000377655,0.009615045972168446,-0.0017985934391617775,-1.002061367034912,0.0,0.0,0.0,0.0,0.0,0.0,0.0,0.0
32,-0.02753043180853143,0.08267711116695398,-0.05140580023640395,-0.032310582664525814,0.026916699831188662,0.00041051976356037967,-1.0028232662968635,-0.03759764094304575,0.3708374122385536,-0.7056617369052713,-0.023750845385925385,2.0796426587956236,-0.22761257043071023,0.632469406527072,0.6765633944637384,-0.07333543633743941,-0.9780737530769847,-0.24613049553830924,1.919729568715049,-0.07744414395082617,0.8836171247254776,-0.07000495009813411,0.031075531616806984,0.09869987517595291,0.018706845119595528,-0.010212578810751438,-0.005761388223618269,-0.002157139591872692,-1.0000289678573608,0.0,0.0,0.0,0.0,0.0,0.0,0.0,0.0
33,-0.02753043180853143,0.08267711116695398,-0.05140580023640395,-0.032310582664525814,0.026916699831188662,0.00041051976356037967,-1.0028232662968635,-0.03805968701469741,0.3840004162309793,-0.6993294316345359,-0.025365093998159165,2.079432746715804,-0.23132474694291624,0.626737434677705,0.6942413974074522,-0.07447252709672894,-0.9788615380224992,-0.25005853571442066,1.918651901325189,-0.07804091639301888,0.884017324328359,-0.07000962700395756,0.028444042429327965,0.10090267658233643,0.023456985130906105,-0.0030435107182711363,-0.02453855611383915,-0.00324810016900301,-1.0032685995101929,0.0,0.0,0.0,0.0,0.0,0.0,0.0,0.0
34,-0.02753043180853143,0.08267711116695398,-0.05140580023640395,-0.032310582664525814,0.026916699831188662,0.00041051976356037967,-1.0028232662968635,-0.03846031036983977,0.397021966154229,-0.6931742398233575,-0.026946992969147685,2.07910877705593,-0.23469318996975322,0.621034797776851,0.7113554157456684,-0.07556699864473697,-0.9796551465180325,-0.2537369797860936,1.917644034013287,-0.07858145643566528,0.8843425153846894,-0.07001355719749236,0.036537013947963715,0.10577564686536789,0.02569752372801304,0.0005860344972461462,-0.03164680302143097,-0.003779615042731166,-1.0035457611083984,0.0,0.0,0.0,0.0,0.0,0.0,0.0,0.0
35,-0.02753043180853143,0.08267711116695398,-0.05140580023640395,-0.032310582664525814,0.026916699831188662,0.00041051976356037967,-1.0028232662968635,-0.03880904217227348,0.4098917736271254,-0.6871929660178643,-0.028491160632301324,2.0786814947992265,-0.23771949332899028,0.6153474920058228,0.7279017359554976,-0.07661946966032664,-0.9804545030987202,-0.2571798336253171,1.9167031749621617,-0.07907192979541264,0.8845957738770491,-0.07001676325417264,0.054031118750572205,0.10030880570411682,0.026528730988502502,0.0018927367636933923,-0.018252607434988022,-0.00281230709515512,-1.0025877952575684,0.0,0.0,0.0,0.0,0.0,0.0,0.0,0.0
36,-0.02753043180853143,0.08267711116695398,-0.05140580023640395,-0.032310582664525814,0.026916699831188662,0.00041051976356037967,-1.0028232662968635,-0.039113221226076036,0.42260288842487614,-0.6813804644030328,-0.02999164184853424,2.0781638340709714,-0.24039395695269072,0.6096499432410969,0.7438664239214233,-0.07763065824626901,-0.9812595376783391,-0.26040059688940725,1.9158262628128657,-0.0795172644913001,0.8847797146747244,-0.07001927894360331,0.059359412640333176,0.10981947183609009,0.03274451568722725,4.933523086947389e-05,-0.006864746101200581,-0.0022436012513935566,-1.0005695819854736,0.0,0.0,0.0,0.0,0.0,0.0,0.0,0.0
37,-0.02753043180853143,0.08267711116695398,-0.05140580023640395,-0.032310582664525814,0.026916699831188662,0.00041051976356037967,-1.0028232662968635,-0.03938351627543079,0.43514899506947163,-0.6757319656061934,-0.03144382281317727,2.0775677420227145,-0.24270439598866697,0.6039289105666165,0.7592561644238993,-0.07860131154441026,-0.9820702185750922,-0.26341230930484555,1.915010251971285,-0.07992184435184986,0.8848968858505832,-0.07002113749387649,0.05877917632460594,0.11444021016359329,0.04362015426158905,-0.0019790856167674065,-0.0033793896436691284,-0.002434215508401394,-1.0023727416992188,0.0,0.0,0.0,0.0,0.0,0.0,0.0,0.0
38,-0.02753043180853143,0.08267711116695398,-0.05140580023640395,-0.032310582664525814,0.026916699831188662,0.00041051976356037967,-1.0028232662968635,-0.03962779291902918,0.44751885839771094,-0.670245833003025,-0.03284389140292554,2.076903006516836,-0.2446427456912037,0.5981955603607549,0.7741045474026836,-0.07953214867430629,-0.9828865776728386,-0.26622757727220536,1.9142523721497413,-0.08029022196731395,0.8849501204191191,-0.07002233987864814,0.059257350862026215,0.11791779845952988,0.047392599284648895,-0.000429282255936414,-0.0028026120271533728,-0.002704414539039135,-1.001639723777771,0.0,0.0,0.0,0.0,0.0,0.0,0.0,0.0
39,-0.02753043180853143,0.08267711116695398,-0.05140580023640395,-0.032310582664525814,0.026916699831188662,0.00041051976356037967,-1.0028232662968635,-0.039850570890371986,0.4597060552641796,-0.6649182168334434,-0.034188809435531174,2.0761808496540146,-0.24618951129882552,0.5924534272938761,0.7884345362953074,-0.08042399650234223,-0.9837086368686602,-0.268858431099753,1.9135496516808912,-0.08062579131005562,0.8849418566395764,-0.0700229387086042,0.05903114005923271,0.12080526351928711,0.055749814957380295,-0.00030392425833269954,-0.0029784697107970715,-0.0029447523411363363,-1.000758409500122,0.0,0.0,0.0,0.0,0.0,0.0,0.0,0.0
40,-0.43108240685185795,0.06221302017164221,-0.5850296520118117,-0.025020307064261463,0.004314357798082952,0.2509958766720481,0.9812315336877704,-0.0402541109635369,0.47169414434320583,-0.6597530057093025,-0.035474948592697765,2.075412790678786,-0.24730391232915522,0.5867667991583378,0.8023461123477489,-0.0812776540251623,-0.9845364700633233,-0.2713164294809083,1.9128994352990518,-0.0809321589190595,0.884874833698236,-0.07002295278337131,-0.4310823976993561,0.06221301853656769,-0.585029661655426,-0.025020306929945946,0.004314357880502939,0.2509958744049072,0.9812315106391907,0.0,0.0,0.0,0.0,0.0,0.0,0.0,0.0
41,-0.43108240685185795,0.06221302017164221,-0.5850296520118117,-0.025020307064261463,0.004314357798082952,0.2509958766720481,0.9812315336877704,-0.04087036274862405,0.4834747537888249,-0.6547495486342274,-0.03670094237927929,2.0746100569397,-0.2479501958292682,0.5811837074395553,0.8159091084714893,-0.08209400094509481,-0.9853701435806149,-0.2736125349487756,1.9122990487865374,-0.0812123826389728,0.8847516185848852,-0.07002241000080024,-0.36435893177986145,0.02919827774167061,-0.5053675770759583,-0.027541743591427803,0.01715725101530552,0.22507399320602417,0.9919048547744751,0.0,0.0,0.0,0.0,0.0,0.0,0.0,0.0
42,-0.43108240685185795,0.06221302017164221,-0.5850296520118117,-0.025020307064261463,0.004314357798082952,0.2509958766720481,0.9812315336877704,-0.04153579158576007,0.49505625041559914,-0.6498966975321897,-0.037868725683703,2.073782899131565,-0.24811147807096773,0.5757005116858447,0.8291368873520499,-0.08287396818041667,-0.9862097406688586,-0.2757571446334334,1.9117459441318119,-0.08146945559662616,0.8845748273369326,-0.07002133731963009,-0.2698907256126404,0.01603519916534424,-0.3764040172100067,-0.023812592029571533,0.02316853404045105,0.17979495227336884,0.9971812963485718,0.0,0.0,0.0,0.0,0.0,0.0,0.0,0.0
43,-0.43108240685185795,0.06221302017164221,-0.5850296520118117,-0.025020307064261463,0.004314357798082952,0.2509958766720481,0.9812315336877704,-0.04213902026071893,0.506448271839783,-0.6451837393349351,-0.0389815556827269,2.0729403786002454,-0.24777279488352116,0.5703151308188069,0.84205744705911,-0.08361852208904894,-0.9870553280942552,-0.2777601068604426,1.9112375865743703,-0.08170573099796485,0.8843468782545855,-0.07001977040397478,-0.13362441956996918,-0.004739102441817522,-0.185834601521492,-0.00725286640226841,0.004130029585212469,0.08445275574922562,0.998863697052002,0.0,0.0,0.0,0.0,0.0,0.0,0.0,0.0
44,-0.43108240685185795,0.06221302017164221,-0.5850296520118117,-0.025020307064261463,0.004314357798082952,0.2509958766720481,0.9812315336877704,-0.042622755046413496,0.517655758091261,-0.6406016135970465,-0.04004317945857049,2.072088283973104,-0.24694546392306854,0.5650065058881765,0.8546565174307005,-0.08432864124887306,-0.9879069613262743,-0.27963076182195484,1.9107715419057847,-0.08192318567211616,0.8840700942150992,-0.07001773891359449,-0.03979845717549324,-0.009251530282199383,-0.05584665387868881,-0.0047306823544204235,-0.0015560573665425181,0.023121483623981476,-1.0046221017837524,0.0,0.0,0.0,0.0,0.0,0.0,0.0,0.0
45,-0.43108240685185795,0.06221302017164221,-0.5850296520118117,-0.025020307064261463,0.004314357798082952,0.2509958766720481,0.9812315336877704,-0.042987981701273735,0.5286898646433636,-0.6361405494699482,-0.04105954582894783,2.0712311502103007,-0.24564582066602503,0.5597426237631999,0.8669162739753333,-0.08500570007761908,-0.988764886402124,-0.28137782823513713,1.910344562389056,-0.08212401101350693,0.8837482934624173,-0.07001522776117898,0.006723827216774225,0.004298928193747997,0.0018537539290264249,-0.0126207135617733,-0.005501826759427786,0.0013298990670591593,-1.0012328624725342,0.0,0.0,0.0,0.0,0.0,0.0,0.0,0.0
46,-0.43108240685185795,0.06221302017164221,-0.5850296520118117,-0.025020307064261463,0.004314357798082952,0.2509958766720481,0.9812315336877704,-0.043261393627232754,0.5395554366235661,-0.6317955197228335,-0.04203575002293533,2.0703749225068555,-0.24386399806665837,0.5545627965223522,0.8789242680659362,-0.08565118503966404,-0.9896296529270263,-0.2830097019678495,1.909953242250804,-0.08231148483026647,0.8833871428486989,-0.070012210891098,0.0260352473706007,0.03651123121380806,0.023982256650924683,-0.018004225566983223,-0.004502665251493454,4.206526864436455e-05,-0.9993585348129272,0.0,0.0,0.0,0.0,0.0,0.0,0.0,0.0
47,-0.43108240685185795,0.06221302017164221,-0.5850296520118117,-0.025020307064261463,0.004314357798082952,0.2509958766720481,0.9812315336877704,-0.04347387120284217,0.5502590624103648,-0.6275618333998991,-0.04297796746514455,2.0695248833494015,-0.24159540676472258,0.5494933501840613,0.8907373122507843,-0.08626641072835507,-0.9905017777757388,-0.2845343068036019,1.9095947331974332,-0.08248855274670625,0.8829914065905913,-0.07000871627486036,0.02610372193157673,0.033517979085445404,0.027709336951375008,-0.011955734342336655,-0.010661344043910503,0.0030637963209301233,-1.000164270401001,0.0,0.0,0.0,0.0,0.0,0.0,0.0,0.0
48,-0.43108240685185795,0.06221302017164221,-0.5850296520118117,-0.025020307064261463,0.004314357798082952,0.2509958766720481,0.9812315336877704,-0.043666751222736486,0.560806556021092,-0.6234357619779616,-0.04389295778064448,2.068683997568603,-0.23885213334479588,0.5445532521778335,0.9023940242094881,-0.0868525804891249,-0.9913817166640267,-0.285959077600403,1.9092665797579536,-0.08265767448110865,0.8825649268029993,-0.0700047885639402,-0.021422650665044785,0.016081826761364937,0.03541937470436096,0.0018198216566815972,-0.042429372668266296,0.0026912095490843058,-0.9986146092414856,0.0,0.0,0.0,0.0,0.0,0.0,0.0,0.0
49,-0.43108240685185795,0.06221302017164221,-0.5850296520118117,-0.025020307064261463,0.004314357798082952,0.2509958766720481,0.9812315336877704,-0.043884273596509746,0.5712010778455989,-0.6194143786209376,-0.04478687549242488,2.0678541046935313,-0.23565445881536753,0.5397622753065225,0.9139273180522631,-0.08741083520253404,-0.9922698577525922,-0.2872909613592748,1.908966573336715,-0.08282073396570613,0.8821107537623246,-0.0700004769859381,-0.08731383085250854,0.008083420805633068,0.03538138419389725,0.006823475006967783,-0.06342072784900665,-0.00017178944835904986,-1.0026769638061523,0.0,0.0,0.0,0.0,0.0,0.0,0.0,0.0
50,-0.5047887435049117,0.007693968767106485,-0.7107520602532625,0.03437377783223747,-0.08908196623542285,0.04002318592709084,0.9968443584017157,-0.04432747801849979,0.5814420262162067,-0.6154979480517668,-0.04566401917977173,2.0670357491274824,-0.23202614132224747,0.535166752964023,0.9253819647140652,-0.08794235666707019,-0.9931664830873926,-0.28853631441644395,1.9086924652200938,-0.08297868016261895,0.8816310441179014,-0.06999583423754216,-0.5047887563705444,0.007693968713283539,-0.7107520699501038,0.034373778849840164,-0.08908196538686752,0.040023185312747955,0.9968443512916565,0.0,0.0,0.0,0.0,0.0,0.0,0.0,0.0
51,-0.5047887435049117,0.007693968767106485,-0.7107520602532625,0.03437377783223747,-0.08908196623542285,0.04002318592709084,0.9968443584017157,-0.045016812161943504,0.5915319445347303,-0.6116856715651987,-0.04652829088036272,2.066228219280196,-0.2280061907471893,0.5307883130417375,0.9367528502115988,-0.08844831902456245,-0.9940718870781344,-0.2897012088237252,1.9084420328976954,-0.08313258607868503,0.8811279944472279,-0.0699908790706765,-0.4903852641582489,0.03898698836565018,-0.6615971922874451,0.008922056294977665,-0.04341921955347061,0.04170135781168938,0.9977766275405884,0.0,0.0,0.0,0.0,0.0,0.0,0.0,0.0
52,-0.5047887435049117,0.007693968767106485,-0.7107520602532625,0.03437377783223747,-0.08908196623542285,0.04002318592709084,0.9968443584017157,-0.04581375257763863,0.6014794080793531,-0.6079720890998825,-0.04738448923075057,2.065431354511985,-0.22363804831122547,0.5266030496886303,0.94799795697066,-0.08893053817348365,-0.9949867220040983,-0.2907920006479333,1.908210784308848,-0.08328400968224627,0.8806058179768497,-0.06998552737499414,-0.48822805285453796,0.0579613633453846,-0.6177599430084229,-0.00022834623814560473,-0.013571009039878845,0.05159324035048485,0.9995063543319702,0.0,0.0,0.0,0.0,0.0,0.0,0.0,0.0
53,-0.5047887435049117,0.007693968767106485,-0.7107520602532625,0.03437377783223747,-0.08908196623542285,0.04002318592709084,0.9968443584017157,-0.04666272393129897,0.6112909035183676,-0.6043529869384066,-0.048237146007595495,2.0646443099988425,-0.21896677646142898,0.5225943071783694,0.9590923404808682,-0.08939104586164483,-0.9959118371047972,-0.2918149869545005,1.9079932506612993,-0.08343452197696924,0.8800693223004079,-0.06997974205820859,-0.49575644731521606,0.13852418959140778,-0.594828188419342,-0.011925716884434223,-0.003093987936154008,0.06920307129621506,0.99702388048172,0.0,0.0,0.0,0.0,0.0,0.0,0.0,0.0
54,-0.5047887435049117,0.007693968767106485,-0.7107520602532625,0.03437377783223747,-0.08908196623542285,0.04002318592709084,0.9968443584017157,-0.04753301628872063,0.6209764091451943,-0.600824624370443,-0.049093551461157584,2.063865873980099,-0.21402056913567535,0.5187274665503823,0.9699490882659371,-0.08983149087333309,-0.9968479503259223,-0.29277581001655834,1.907785123914502,-0.08358526466903238,0.8795220279489031,-0.06997356873357631,-0.4866125285625458,0.19751569628715515,-0.5668423175811768,-0.019813787192106247,-0.007251200266182423,0.08698520064353943,0.9969128966331482,0.0,0.0,0.0,0.0,0.0,0.0,0.0,0.0
55,-0.5047887435049117,0.007693968767106485,-0.7107520602532625,0.03437377783223747,-0.08908196623542285,0.04002318592709084,0.9968443584017157,-0.04836879259506203,0.6305428333362277,-0.5973850627143767,-0.04996210705987309,2.063093445449503,-0.2088208105401054,0.5149567601952805,0.9804431489156841,-0.0902532296759279,-0.9977956649857416,-0.293679537135287,1.9075830171599852,-0.08373706282983699,0.8789665063723751,-0.0699670669037129,-0.4020146131515503,0.1680639535188675,-0.5249837040901184,-0.01715022139251232,-0.016691699624061584,0.08388234674930573,0.9969553351402283,0.0,0.0,0.0,0.0,0.0,0.0,0.0,0.0
56,-0.5047887435049117,0.007693968767106485,-0.7107520602532625,0.03437377783223747,-0.08908196623542285,0.04002318592709084,0.9968443584017157,-0.0491047106918377,0.639996558025243,-0.5940311997655263,-0.05084898782047685,2.062325179624347,-0.2033930254899834,0.5112440197132718,0.9905110301172008,-0.09065745855932365,-0.9987554868912524,-0.29453068806527577,1.907384089876985,-0.08389031608676845,0.8784046475604769,-0.06996029287382186,-0.28156495094299316,0.12782537937164307,-0.45317280292510986,-0.014863599091768265,-0.024206997826695442,0.07400760054588318,0.9975427985191345,0.0,0.0,0.0,0.0,0.0,0.0,0.0,0.0
57,-0.5047887435049117,0.007693968767106485,-0.7107520602532625,0.03437377783223747,-0.08908196623542285,0.04002318592709084,0.9968443584017157,-0.04968553752878433,0.649338344557682,-0.590759398120839,-0.051753593002002767,2.0615612136920753,-0.19778155255630728,0.507603552791038,1.0002444444569885,-0.09104514040072001,-0.9997278316343305,-0.2953333455637092,1.9071862871177956,-0.08404543921846322,0.877837827683227,-0.06995329441616038,-0.14268237352371216,0.09141667187213898,-0.36846408247947693,-0.010843428783118725,-0.028519637882709503,0.06490471214056015,1.0010052919387817,0.0,0.0,0.0,0.0,0.0,0.0,0.0,0.0
58,-0.5047887435049117,0.007693968767106485,-0.7107520602532625,0.03437377783223747,-0.08908196623542285,0.04002318592709084,0.9968443584017157,-0.05008741184710097,0.6585690000948683,-0.5875664571889255,-0.05267555716210054,2.0608019685243097,-0.19202554298449045,0.504044675243544,1.009707500880816,-0.0914171765548273,-1.0007130396374464,-0.2960911462401364,1.9069878175260062,-0.08420251545362059,0.8772670501026101,-0.06994611211103038,-0.05084405839443207,0.05905279517173767,-0.3145635426044464,-0.006806799676269293,-0.02342509850859642,0.06072257459163666,1.0002319812774658,0.0,0.0,0.0,0.0,0.0,0.0,0.0,0.0
59,-0.5047887435049117,0.007693968767106485,-0.7107520602532625,0.03437377783223747,-0.08908196623542285,0.04002318592709084,0.9968443584017157,-0.05034149620053037,0.6676900572173151,-0.5844492551851251,-0.05361478806257753,2.0600481079512387,-0.18615929943841136,0.5005707630706476,1.0189432465887158,-0.09177438043197228,-1.0017113839726168,-0.29680734284028715,1.9067872348779216,-0.08436151097543018,0.8766930434952996,-0.06993877923400763,-0.01670124940574169,0.027248943224549294,-0.2517492473125458,-0.003333675442263484,-0.021339625120162964,0.060786519199609756,1.0026488304138184,0.0,0.0,0.0,0.0,0.0,0.0,0.0,0.0
60,-0.13096009219640503,0.026542323009788982,-0.09462639602065093,-0.010442128883581966,-0.018018281057583352,-0.05211738808621441,-1.0016427338470817,-0.05054996690080057,0.676701923486624,-0.5814039004660504,-0.05457168224306677,2.0592997083962974,-0.18022122157750609,0.49715022468030207,1.0279445007953691,-0.09211746092198086,-1.002723076513954,-0.29748486822900166,1.90658347511214,-0.08452239221906814,0.8761163329358095,-0.06993132307881028,-0.13096009194850922,0.02654232271015644,-0.09462639689445496,-0.010442129336297512,-0.01801828108727932,-0.05211738869547844,-1.0016427040100098,0.0,0.0,0.0,0.0,0.0,0.0,0.0,0.0
61,-0.13096009219640503,0.026542323009788982,-0.09462639602065093,-0.010442128883581966,-0.018018281057583352,-0.05211738808621441,-1.0016427338470817,-0.05072532093063406,0.685607714489145,-0.5784259668165487,-0.05554627526732812,2.058556942258981,-0.17424388488294704,0.4937574288009513,1.0367137955885504,-0.09244710234116055,-1.0037482784373974,-0.298126334870099,1.9063756187845349,-0.0846850122578676,0.8755372855380227,-0.06992376616920352,-0.053392212837934494,0.020203962922096252,-0.027770251035690308,-0.004563090391457081,-0.004097536206245422,-0.04473790526390076,-1.0023255348205566,0.0,0.0,0.0,0.0,0.0,0.0,0.0,0.0
62,-0.13096009219640503,0.026542323009788982,-0.09462639602065093,-0.010442128883581966,-0.018018281057583352,-0.05211738808621441,-1.0016427338470817,-0.05083412438181789,0.6944044325293074,-0.5755147956446193,-0.05653654114055702,2.057819819472801,-0.1682518604404358,0.4904183991531675,1.0452996350549195,-0.09276389950313779,-1.004787102316618,-0.2987341189895274,1.9061630536229013,-0.0848492704373572,0.8749561541777028,-0.06991612702858593,-0.012637193314731121,0.02745242789387703,-0.0011650847736746073,-0.0027458532713353634,-0.0021564920898526907,-0.038692060858011246,-1.0033633708953857,0.0,0.0,0.0,0.0,0.0,0.0,0.0,0.0
63,-0.13096009219640503,0.026542323009788982,-0.09462639602065093,-0.010442128883581966,-0.018018281057583352,-0.05211738808621441,-1.0016427338470817,-0.05089153727331431,0.7030973216693396,-0.5726666004909603,-0.05754181292993237,2.0570895781631156,-0.16225670113007126,0.4871336757354935,1.0537182366356717,-0.09306856133702829,-1.0058396343665543,-0.2993102061796451,1.9059449043771142,-0.08501456985741206,0.8743732864278811,-0.06990842390355646,-0.003776733297854662,0.03293081372976303,0.005953810177743435,-0.0021629449911415577,-0.004275911021977663,-0.03415102884173393,-1.004475712776184,0.0,0.0,0.0,0.0,0.0,0.0,0.0,0.0
64,-0.13096009219640503,0.026542323009788982,-0.09462639602065093,-0.010442128883581966,-0.018018281057583352,-0.05211738808621441,-1.0016427338470817,-0.050921656876058395,0.7116849755196102,-0.5698799091021182,-0.058560419147749856,2.0563663888400265,-0.15627479036047462,0.48391195002573917,1.0619885940713865,-0.09336165154340627,-1.0069059769474868,-0.29985612988634913,1.905721035848315,-0.08518090842576709,0.8737896278847314,-0.06990067344277219,-0.003829445457085967,0.037726808339357376,0.0005136990803293884,-0.002550639910623431,-0.004236273001879454,-0.031685199588537216,-1.0042706727981567,0.0,0.0,0.0,0.0,0.0,0.0,0.0,0.0
65,-0.13096009219640503,0.026542323009788982,-0.09462639602065093,-0.010442128883581966,-0.018018281057583352,-0.05211738808621441,-1.0016427338470817,-0.05093485258681993,0.7199404273846001,-0.5672013807754323,-0.05955310927011988,2.0556101417614014,-0.15054144382343398,0.4807548306366245,1.0700287343490307,-0.09364378063640094,-1.0079862861435853,-0.30037275993675594,1.905491582875348,-0.08534826128373839,0.8732069740978405,-0.06989289743099125,0.004408709704875946,0.044372811913490295,-0.0018327656434848905,-0.004439929965883493,-0.003304877085611224,-0.026840196922421455,-1.0022919178009033,0.0,0.0,0.0,0.0,0.0,0.0,0.0,0.0
66,-0.13096009219640503,0.026542323009788982,-0.09462639602065093,-0.010442128883581966,-0.018018281057583352,-0.05211738808621441,-1.0016427338470817,-0.050937628398318176,0.7273734892295294,-0.5647323745548345,-0.060436382361233255,2.0547343214686715,-0.14554252610616258,0.47765835801299866,1.0776599003934055,-0.09391557601381541,-1.0090807563464779,-0.30086049983756,1.9052569043297827,-0.08551666182877841,0.8726274950620646,-0.06988511593489648,0.003150746924802661,0.04697981849312782,-0.004432313609868288,-0.004179202951490879,-0.0028961235657334328,-0.02504677325487137,-1.0038223266601562,0.0,0.0,0.0,0.0,0.0,0.0,0.0,0.0
67,-0.13096009219640503,0.026542323009788982,-0.09462639602065093,-0.010442128883581966,-0.018018281057583352,-0.05211738808621441,-1.0016427338470817,-0.05093978471973513,0.7339504707964317,-0.5624746554062466,-0.06120220027148212,2.053734536820774,-0.14130796161650527,0.47462501858107736,1.0849045130515165,-0.09417768644225182,-1.0101896059817888,-0.3013194354599453,1.9050174331950533,-0.08568609660924364,0.872053417224489,-0.0698773462580239,-0.004044008906930685,0.04965146258473396,-0.010125731118023396,-0.004089951515197754,-0.0033869410399347544,-0.022079290822148323,-1.0014464855194092,0.0,0.0,0.0,0.0,0.0,0.0,0.0,0.0
68,-0.13096009219640503,0.026542323009788982,-0.09462639602065093,-0.010442128883581966,-0.018018281057583352,-0.05211738808621441,-1.0016427338470817,-0.05095000607323496,0.7397744820986494,-0.5604013828974294,-0.061864246459619174,2.0526299522354674,-0.13773216646481723,0.47165829046239444,1.0918337094213497,-0.09443084112533012,-1.0113130626312727,-0.30174940786026505,1.9047734064772484,-0.0858562920485281,0.8714867565561297,-0.06986960356812968,-0.014746883884072304,0.06144427880644798,-0.016239333897829056,-0.005456665996462107,-0.005064078606665134,-0.01709950715303421,-1.0028008222579956,0.0,0.0,0.0,0.0,0.0,0.0,0.0,0.0
69,-0.13096009219640503,0.026542323009788982,-0.09462639602065093,-0.010442128883581966,-0.018018281057583352,-0.05211738808621441,-1.0016427338470817,-0.05097790518868476,0.7449469948736932,-0.5584872801060968,-0.06243624003063469,2.0514391505778127,-0.13471406761916566,0.46876345700559274,1.0985095182266575,-0.09467559017065086,-1.0124512961616052,-0.30215064558762095,1.9045252285178422,-0.08602746300619979,0.8709283602239294,-0.06986188573629143,-0.03357606381177902,0.07018640637397766,-0.028679395094513893,-0.008919138461351395,-0.011818449944257736,-0.013084044679999352,-1.0042215585708618,0.0,0.0,0.0,0.0,0.0,0.0,0.0,0.0
70,-0.14334684360194216,0.02323412347233289,-0.24962681821954258,-0.0077828358552955584,-0.032479685634336175,-0.05311010834371538,0.9962588000043631,-0.05107824804355557,0.7495512817612336,-0.5567134743986352,-0.0629297708859183,2.0501783940197544,-0.13216760043391326,0.46597789551618435,1.1050094674092334,-0.09491221841624538,-1.0136043776162067,-0.3025240841539269,1.9042734712549672,-0.08620023636821564,0.8703777000735596,-0.0698541806734159,-0.1433468461036682,0.02323412336409092,-0.24962681531906128,-0.007782835979014635,-0.03247968479990959,-0.05311010777950287,0.9962587952613831,0.0,0.0,0.0,0.0,0.0,0.0,0.0,0.0
71,-0.14334684360194216,0.02323412347233289,-0.24962681821954258,-0.0077828358552955584,-0.032479685634336175,-0.05311010834371538,0.9962588000043631,-0.05121143674001226,0.7536609741476742,-0.5550624123553178,-0.0633550059292735,2.048861684815703,-0.13001958073210315,0.46332065481473844,1.1113811747777185,-0.09514096222217046,-1.0147723035963911,-0.30287102606916017,1.9040184101367563,-0.08637498538465847,0.869833529396237,-0.06984647752046369,-0.05921695753931999,0.02407110296189785,-0.1478397399187088,-0.004655126947909594,-0.03830816596746445,-0.05613298714160919,0.9984210729598999,0.0,0.0,0.0,0.0,0.0,0.0,0.0,0.0
72,-0.14334684360194216,0.02323412347233289,-0.24962681821954258,-0.0077828358552955584,-0.032479685634336175,-0.05311010834371538,0.9962588000043631,-0.051328488416844786,0.7573406123544609,-0.5535172668474724,-0.06372050254971182,2.0475001574290923,-0.12821257357758248,0.46077691272488336,1.1176341052298966,-0.09536199777209016,-1.0159550103330999,-0.3031930481551269,1.9037601615755264,-0.08655198054870976,0.8692942358811258,-0.06983876523211562,-0.06195070967078209,0.016187218949198723,-0.13930989801883698,-0.0016774906544014812,-0.05437318608164787,-0.059195782989263535,0.99949049949646,0.0,0.0,0.0,0.0,0.0,0.0,0.0,0.0
73,-0.14334684360194216,0.02323412347233289,-0.24962681821954258,-0.0077828358552955584,-0.032479685634336175,-0.05311010834371538,0.9962588000043631,-0.05146070523556989,0.7606437301427481,-0.5520646163018001,-0.06403338574844186,2.0461028717740692,-0.12670025858084538,0.45833456340675116,1.1237755441363488,-0.09557546705848027,-1.0171523848869137,-0.30349188077053074,1.9034987094803455,-0.08673137093605496,0.8687580956634343,-0.0698310345828623,-0.10361373424530029,-0.0005100917187519372,-0.18768082559108734,-0.0014695118879899383,-0.07553570717573166,-0.06760235875844955,1.0019789934158325,0.0,0.0,0.0,0.0,0.0,0.0,0.0,0.0
74,-0.14334684360194216,0.02323412347233289,-0.24962681821954258,-0.0077828358552955584,-0.032479685634336175,-0.05311010834371538,0.9962588000043631,-0.05163545360362733,0.763618235493696,-0.5506921657823652,-0.0643001509176509,2.044677974851773,-0.1254416555003412,0.4559833095170303,1.1298133626720632,-0.09578156664022586,-1.018364274723358,-0.30376924335744443,1.903233743298533,-0.08691293456558272,0.8682234566962024,-0.0698232811787289,-0.1407407522201538,-0.006108871661126614,-0.2411353588104248,-0.00028308594482950866,-0.08212725818157196,-0.07428397238254547,1.0008000135421753,0.0,0.0,0.0,0.0,0.0,0.0,0.0,0.0
75,-0.14334684360194216,0.02323412347233289,-0.24962681821954258,-0.0077828358552955584,-0.032479685634336175,-0.05311010834371538,0.9962588000043631,-0.05187495718815422,0.7663064616014479,-0.5493889660510188,-0.06452665184254815,2.0432326623944332,-0.12440116341305604,0.4537144193247434,1.1357560754626193,-0.0959974159527377,-1.0195916557857292,-0.3039312981774267,1.9029729258861214,-0.08699901640969585,0.8677742395854343,-0.06981970163365586,-0.1996394544839859,-0.0025107909459620714,-0.29638487100601196,0.001654519117437303,-0.06416983902454376,-0.0735822319984436,0.9968909621238708,0.0,0.0,0.0,0.0,0.0,0.0,0.0,0.0
76,-0.14334684360194216,0.02323412347233289,-0.24962681821954258,-0.0077828358552955584,-0.032479685634336175,-0.05311010834371538,0.9962588000043631,-0.05218770001071495,0.7687458380383005,-0.5481451918613468,-0.06471809242450627,2.041773200351645,-0.1235481881622805,0.4515168410667215,1.1416048856281513,-0.0962289702828214,-1.020836008587485,-0.3039562469319541,1.902718543630414,-0.08699873395772048,0.8674153915171016,-0.06981732870703035,-0.23861339688301086,0.002495446940883994,-0.3267049491405487,-0.00033042425638996065,-0.04700087755918503,-0.06999801099300385,0.9924029111862183,0.0,0.0,0.0,0.0,0.0,0.0,0.0,0.0
77,-0.14334684360194216,0.02323412347233289,-0.24962681821954258,-0.0077828358552955584,-0.032479685634336175,-0.05311010834371538,0.9962588000043631,-0.052566527057864736,0.770966705705926,-0.5469532408906183,-0.06487863424892945,2.0403043422715412,-0.12285931218796968,0.44937918524025217,1.1473606975053878,-0.09647253024547514,-1.0220983474153889,-0.30386896534081576,1.9024691398354707,-0.0869573536141584,0.8671142215583375,-0.06981433386185254,-0.2711716890335083,0.010486944578588009,-0.3337917625904083,-0.0007126406999304891,-0.036645617336034775,-0.07091238349676132,0.9985368847846985,0.0,0.0,0.0,0.0,0.0,0.0,0.0,0.0
78,-0.14334684360194216,0.02323412347233289,-0.24962681821954258,-0.0077828358552955584,-0.032479685634336175,-0.05311010834371538,0.9962588000043631,-0.053033768759341786,0.7729933345947329,-0.5458074584802255,-0.06501148073624562,2.038829955779775,-0.12231708475434501,0.44729757255653374,1.153027241030395,-0.09672440341250936,-1.023379503941363,-0.3036882582878143,1.90222370212145,-0.08690038802057996,0.8668495395760033,-0.06981042487983896,-0.35805419087409973,0.028373287990689278,-0.3444327712059021,-0.001820863806642592,-0.032158177345991135,-0.07368647307157516,0.9979352355003357,0.0,0.0,0.0,0.0,0.0,0.0,0.0,0.0
79,-0.14334684360194216,0.02323412347233289,-0.24962681821954258,-0.0077828358552955584,-0.032479685634336175,-0.05311010834371538,0.9962588000043631,-0.05361628760298825,0.7748500615350692,-0.5447014814797047,-0.06512008594693745,2.0373539937914975,-0.12190279277583078,0.4452687920052716,1.158614855253371,-0.09698123022604431,-1.0246801479239651,-0.3034287363974442,1.901981407793301,-0.08684185595315451,0.8666076038458246,-0.06980571298191139,-0.4358839690685272,0.05886697396636009,-0.3608182966709137,-0.00021045321773272008,-0.029823722317814827,-0.07778123766183853,0.9957398772239685,0.0,0.0,0.0,0.0,0.0,0.0,0.0,0.0
80,-0.3221369979223013,0.2789337161071299,-0.5717751989079713,-0.030507820086882603,-0.002802601650764569,0.012817456825977347,0.9996701275942326,-0.05422373824858763,0.7765601959785395,-0.5436295292448193,-0.06520819709460941,2.0358802553672035,-0.12159839308280156,0.44329037927522363,1.164133193054389,-0.09724011201907595,-1.0260008029136778,-0.30310201966890493,1.9017415094255627,-0.08678912937115997,0.8663794996486528,-0.06980037157459516,-0.3221369981765747,0.27893370389938354,-0.5717751979827881,-0.03050781972706318,-0.0028026015497744083,0.012817456386983395,0.999670147895813,0.0,0.0,0.0,0.0,0.0,0.0,0.0,0.0
81,-0.3221369979223013,0.2789337161071299,-0.5717751989079713,-0.030507820086882603,-0.002802601650764569,0.012817456825977347,0.9996701275942326,-0.05475797969479777,0.7781404449253215,-0.5425877800017418,-0.06527816785362264,2.034411300476633,-0.12139219985535332,0.44135954314813824,1.1695844698279703,-0.09749863483232199,-1.027341860491499,-0.30271752842727556,1.901503290770258,-0.08674577401719175,0.866159442480971,-0.06979454886685828,-0.2441272884607315,0.16830702126026154,-0.4227750897407532,-0.014160261489450932,-0.0012415569508448243,-0.005335400812327862,0.9944071173667908,0.0,0.0,0.0,0.0,0.0,0.0,0.0,0.0
82,-0.3221369979223013,0.2789337161071299,-0.5717751989079713,-0.030507820086882603,-0.002802601650764569,0.012817456825977347,0.9996701275942326,-0.05518385308475051,0.7796022746692871,-0.5415735991500795,-0.06533114137454686,2.0329486595331407,-0.12127734346416082,0.43947342993685756,1.1749697977823543,-0.0977548417418128,-1.0287035941598506,-0.3022830175301315,1.9012660558348355,-0.08671320969992519,0.8659436789315067,-0.06978835592257525,-0.15932780504226685,0.13242162764072418,-0.280682772397995,-0.01080696377903223,-0.00219413498416543,-0.01946094259619713,0.9986067414283752,0.0,0.0,0.0,0.0,0.0,0.0,0.0,0.0
83,-0.3221369979223013,0.2789337161071299,-0.5717751989079713,-0.030507820086882603,-0.002802601650764569,0.012817456825977347,0.9996701275942326,-0.0554828986840751,0.7809593754685032,-0.5405832882187536,-0.06536896003440228,2.031494369164779,-0.12124422950057409,0.4376294857095244,1.1802928617478334,-0.0979894889684276,-1.030084093905917,-0.30190658133983,1.9010199474086462,-0.08679175240295978,0.8656310918397527,-0.06977753263464091,-0.07552298158407211,0.1342450976371765,-0.17962054908275604,-0.010789535939693451,-0.002963094972074032,-0.03359704092144966,0.9968629479408264,0.0,0.0,0.0,0.0,0.0,0.0,0.0,0.0
84,-0.3221369979223013,0.2789337161071299,-0.5717751989079713,-0.030507820086882603,-0.002802601650764569,0.012817456825977347,0.9996701275942326,-0.055670107594730914,0.7822241196079002,-0.5396136585727058,-0.06539349002363415,2.0300501569407814,-0.12128367877958995,0.43582584052499557,1.1855618761351778,-0.09819384134593907,-1.0314813252057529,-0.301626884738882,1.9007607502478383,-0.08697969323191095,0.8652059527493743,-0.06976481119077191,-0.036435119807720184,0.1365830898284912,-0.13717953860759735,-0.009553428739309311,-0.008399982005357742,-0.04670843109488487,0.9996057748794556,0.0,0.0,0.0,0.0,0.0,0.0,0.0,0.0
85,-0.3221369979223013,0.2789337161071299,-0.5717751989079713,-0.030507820086882603,-0.002802601650764569,0.012817456825977347,0.9996701275942326,-0.055785658954820176,0.7834056616166102,-0.5386627910928922,-0.06540603356317157,2.028617346482537,-0.12138924551485153,0.43406428493344984,1.1907822324952537,-0.09836985924610879,-1.0328940908353188,-0.3014291878579185,1.900489112256115,-0.08723331112946611,0.8647013899125994,-0.0697521908120076,-0.027793491259217262,0.10862994939088821,-0.16897758841514587,-0.004467894788831472,-0.014334067702293396,-0.05668238550424576,1.0015895366668701,0.0,0.0,0.0,0.0,0.0,0.0,0.0,0.0
86,-0.3221369979223013,0.2789337161071299,-0.5717751989079713,-0.030507820086882603,-0.002802601650764569,0.012817456825977347,0.9996701275942326,-0.0558770015939115,0.7845105217810847,-0.5377296476576062,-0.06540737236660452,2.027196656053152,-0.12155666191955013,0.43234205574991863,1.195949965138499,-0.09852049238912468,-1.0343214373884717,-0.3013007869391866,1.9002054770119372,-0.08752577299487187,0.8641427614294769,-0.06974013606455355,-0.05179297924041748,0.04315062239766121,-0.25043678283691406,0.0007150626624934375,-0.019032618030905724,-0.06697393953800201,1.0019422769546509,0.0,0.0,0.0,0.0,0.0,0.0,0.0,0.0
87,-0.3221369979223013,0.2789337161071299,-0.5717751989079713,-0.030507820086882603,-0.002802601650764569,0.012817456825977347,0.9996701275942326,-0.055968438558689985,0.7855464669448262,-0.5368124472763995,-0.06539864434394839,2.0257889202892216,-0.12177993743187682,0.43065245078465225,1.2010593629134407,-0.09864893899971762,-1.0357624313615388,-0.3012305165985336,1.8999105504622347,-0.0878399583345668,0.8635480560782984,-0.06972871326017703,-0.05560918524861336,0.01534056942909956,-0.26911935210227966,0.003322301898151636,-0.032661132514476776,-0.07279282808303833,0.9990048408508301,0.0,0.0,0.0,0.0,0.0,0.0,0.0,0.0
88,-0.3221369979223013,0.2789337161071299,-0.5717751989079713,-0.030507820086882603,-0.002802601650764569,0.012817456825977347,0.9996701275942326,-0.0560529725288526,0.7865188265404998,-0.5359104017508108,-0.06538060084081396,2.024394632644755,-0.12205581116580212,0.42899510342690783,1.2061115799063935,-0.0987584518938375,-1.0372161324179798,-0.3012084145915541,1.8996049205179595,-0.08816430834028607,0.8629296075721157,-0.06971788181541858,-0.03933418542146683,0.0033286770340055227,-0.23191022872924805,0.003409935859963298,-0.04912785813212395,-0.07735268026590347,0.998142659664154,0.0,0.0,0.0,0.0,0.0,0.0,0.0,0.0
89,-0.3221369979223013,0.2789337161071299,-0.5717751989079713,-0.030507820086882603,-0.002802601650764569,0.012817456825977347,0.9996701275942326,-0.056125176861827435,0.7874352320885523,-0.5350214635029299,-0.06535449585443676,2.0230145796693653,-0.12237833316531035,0.4273644824910048,1.2111044455176245,-0.09887199388165402,-1.0386835197171602,-0.30111011126120646,1.8992987996174904,-0.08837312105831566,0.8624039701708086,-0.06971261216744774,-0.03397537022829056,-0.005910124164074659,-0.191372811794281,0.0034752129577100277,-0.08575014770030975,-0.08275162428617477,0.9945701956748962,0.0,0.0,0.0,0.0,0.0,0.0,0.0,0.0
90,-0.0805717003526093,0.07676076929128162,-0.25857137425392873,0.003274734655311473,-0.0032627013591288445,0.006143636097533628,0.9981006928341389,-0.05621371550757709,0.7883005807382406,-0.5341450817733768,-0.065321198995375,2.021649296880905,-0.12274409613732919,0.42576133913670816,1.2160398987618557,-0.09899932851162811,-1.0401658388028447,-0.30089965320169537,1.8989956198308813,-0.08847216694128046,0.8619836066473902,-0.06970929387217949,-0.08057170361280441,0.07676076889038086,-0.2585713863372803,0.0032747345976531506,-0.0032627014443278313,0.00614363607019186,0.9981006979942322,0.0,0.0,0.0,0.0,0.0,0.0,0.0,0.0
91,-0.0805717003526093,0.07676076929128162,-0.25857137425392873,0.003274734655311473,-0.0032627013591288445,0.006143636097533628,0.9981006928341389,-0.056319749896493465,0.7891201542224144,-0.5332802267141568,-0.06528161429280012,2.0202994631610935,-0.12314900685366187,0.424186025119592,1.2209193079166725,-0.09913837214447521,-1.0416636353825828,-0.3005992958968252,1.898694336770296,-0.08851369658995592,0.8616308265669147,-0.06970564052077505,-0.06463340669870377,0.04357456415891647,-0.16703572869300842,0.00028018199373036623,-0.002162644173949957,-0.00012357410741969943,0.9995065927505493,0.0,0.0,0.0,0.0,0.0,0.0,0.0,0.0
92,-0.0805717003526093,0.07676076929128162,-0.25857137425392873,0.003274734655311473,-0.0032627013591288445,0.006143636097533628,0.9981006928341389,-0.05641528979408923,0.7898996565144172,-0.5324251410347999,-0.06523661843286759,2.0189657446661733,-0.12358841716849292,0.4226371412162859,1.225743744467769,-0.09926799839943402,-1.0431751860319611,-0.3003339216730925,1.898385157614212,-0.08863684768616827,0.8612157233270841,-0.0696965467733828,-0.04070008546113968,0.02265302836894989,-0.07201256603002548,-0.0006911843083798885,-0.0016393748810514808,-0.005013864487409592,1.0007354021072388,0.0,0.0,0.0,0.0,0.0,0.0,0.0,0.0
93,-0.0805717003526093,0.07676076929128162,-0.25857137425392873,0.003274734655311473,-0.0032627013591288445,0.006143636097533628,0.9981006928341389,-0.056484259262181875,0.7906419171921941,-0.5315794450652804,-0.0651866310832745,2.0176481994301274,-0.1240604230151165,0.4211144413811088,1.2305151677663926,-0.0993779980345881,-1.0446986752208554,-0.30014924978961516,1.898064347366033,-0.08885516363556484,0.860709235322608,-0.06968505345408117,-0.016844425350427628,0.016041859984397888,-0.02497706562280655,-0.0006432203226722777,-0.0016938021872192621,-0.011113218031823635,1.0045477151870728,0.0,0.0,0.0,0.0,0.0,0.0,0.0,0.0
94,-0.0805717003526093,0.07676076929128162,-0.25857137425392873,0.003274734655311473,-0.0032627013591288445,0.006143636097533628,0.9981006928341389,-0.05652213428580649,0.7913497233757235,-0.5307428098085278,-0.06513231301817865,2.016346883787613,-0.12456162618757029,0.4196172505668308,1.2352340906737174,-0.09947963503082875,-1.0462342394270523,-0.2999723353399991,1.8977374317420366,-0.08906664009054337,0.8601973261690613,-0.06967603316956825,0.001394077087752521,0.01881657913327217,-0.0034155119210481644,-0.0004249330086167902,-0.0008467470179311931,-0.01658049412071705,0.9981809258460999,0.0,0.0,0.0,0.0,0.0,0.0,0.0,0.0
95,-0.0805717003526093,0.07676076929128162,-0.25857137425392873,0.003274734655311473,-0.0032627013591288445,0.006143636097533628,0.9981006928341389,-0.056535044153659335,0.7920264216152179,-0.5299145509919202,-0.06507432667627024,2.015061925568697,-0.12508890831360334,0.41814306737380247,1.2399000596283845,-0.09958333472340877,-1.047783028163448,-0.29975098529683375,1.8974092267333702,-0.08923423202844097,0.8597251308796391,-0.06966872146621476,0.007979079149663448,0.025007357820868492,0.057642631232738495,-0.0003756947407964617,-0.0015642147045582533,-0.016516955569386482,0.9960260391235352,0.0,0.0,0.0,0.0,0.0,0.0,0.0,0.0
96,-0.0805717003526093,0.07676076929128162,-0.25857137425392873,0.003274734655311473,-0.0032627013591288445,0.006143636097533628,0.9981006928341389,-0.05652270599189735,0.792675547433481,-0.5290936966914833,-0.06501323643954568,2.0137935791983126,-0.12563967276074864,0.4166923891360796,1.2445169663337259,-0.09968387551107712,-1.049344350981163,-0.29951963895480943,1.8970770520068891,-0.08939913710612224,0.8592558821520606,-0.06966115004300848,0.02937016822397709,0.02289041131734848,0.23620927333831787,-0.005578155629336834,-0.025337114930152893,-0.014231696724891663,0.9957266449928284,0.0,0.0,0.0,0.0,0.0,0.0,0.0,0.0
97,-0.0805717003526093,0.07676076929128162,-0.25857137425392873,0.003274734655311473,-0.0032627013591288445,0.006143636097533628,0.9981006928341389,-0.05645452303156232,0.7932983678567973,-0.528280226289117,-0.06494914266624142,2.012541661003479,-0.1262135864059727,0.41526648434458246,1.2490875909300339,-0.09977642280767791,-1.050917292838783,-0.29930509719354953,1.896738924766422,-0.08958212162620545,0.8587667763958963,-0.06965341571163214,0.09840299934148788,0.026686448603868484,0.364220529794693,-0.0020860927179455757,-0.03406592458486557,-0.012770667672157288,0.9965177774429321,0.0,0.0,0.0,0.0,0.0,0.0,0.0,0.0
98,-0.0805717003526093,0.07676076929128162,-0.25857137425392873,0.003274734655311473,-0.0032627013591288445,0.006143636097533628,0.9981006928341389,-0.05627486658017907,0.7938977215434735,-0.5274734656912786,-0.06488254431231741,2.011306358694382,-0.12680815358845635,0.41386636339480487,1.2536149146807136,-0.09986613132573119,-1.0525023154672983,-0.29908217779132035,1.8963970313322578,-0.08976536366344615,0.8582788353078619,-0.06964519484274208,0.21150769293308258,0.029774636030197144,0.4102436602115631,-0.000996289076283574,-0.05153731256723404,-0.021509166806936264,1.0011084079742432,0.0,0.0,0.0,0.0,0.0,0.0,0.0,0.0
99,-0.0805717003526093,0.07676076929128162,-0.25857137425392873,0.003274734655311473,-0.0032627013591288445,0.006143636097533628,0.9981006928341389,-0.05596190014797449,0.7944753180365655,-0.5266732850126837,-0.06481378249021885,2.010087417353468,-0.1274216091575694,0.4124862175043328,1.258093013140097,-0.0999533519353428,-1.0540991468935257,-0.2988484116669173,1.8960516678609096,-0.08994239231269842,0.8577964085620504,-0.0696370357598454,0.2837398946285248,0.007108926773071289,0.38677743077278137,-0.0017213649116456509,-0.07285049557685852,-0.0316661037504673,1.0002613067626953,0.0,0.0,0.0,0.0,0.0,0.0,0.0,0.0
100,-0.4182227522119582,0.01433607476341714,-0.6606219637941122,-0.00515703979529826,-0.0008246982734691766,-0.0077032007975417205,0.995930324746251,-0.05592266927435105,0.7950298235653828,-0.5258818565593906,-0.0647430109953673,2.008884373411913,-0.128053201542427,0.4111268530862393,1.2625173914052954,-0.10003796149234977,-1.055707496519324,-0.2986037133320207,1.8957030651474036,-0.09010912048745481,0.8573216296038307,-0.06962972901767997,-0.4182227551937103,0.014336074702441692,-0.6606219410896301,-0.00515703996643424,-0.0008246982470154762,-0.007703200913965702,0.9959303140640259,0.0,0.0,0.0,0.0,0.0,0.0,0.0,0.0
101,-0.4182227522119582,0.01433607476341714,-0.6606219637941122,-0.00515703979529826,-0.0008246982734691766,-0.0077032007975417205,0.995930324746251,-0.056234431758400524,0.7955605972464227,-0.5251006653285875,-0.06467038316574832,2.007696924802099,-0.12870209571310856,0.4097905307711166,1.266887508844,-0.10011478800189261,-1.0573268680940466,-0.29838404981794725,1.8953487739292767,-0.0903139711187289,0.8568141987752832,-0.06962045737098115,-0.32201138138771057,0.015101016499102116,-0.5788111090660095,-0.004306155722588301,0.0007764123729430139,-0.009116331115365028,0.9986363053321838,0.0,0.0,0.0,0.0,0.0,0.0,0.0,0.0
102,-0.4182227522119582,0.01433607476341714,-0.6606219637941122,-0.00515703979529826,-0.0008246982734691766,-0.0077032007975417205,0.995930324746251,-0.05662603533465688,0.7960684928732314,-0.5243293411538343,-0.06459590379899591,2.0065248265713773,-0.1293677938252573,0.408477829256172,1.2712067251610224,-0.10018443042974069,-1.058956592621993,-0.2981793858862947,1.894989566041067,-0.0905268582664197,0.8562936518566153,-0.06961198856471555,-0.23395219445228577,0.011130406521260738,-0.44257012009620667,-0.002376470947638154,0.0016715966630727053,-0.008941024541854858,0.9976117014884949,0.0,0.0,0.0,0.0,0.0,0.0,0.0,0.0
103,-0.4182227522119582,0.01433607476341714,-0.6606219637941122,-0.00515703979529826,-0.0008246982734691766,-0.0077032007975417205,0.995930324746251,-0.05696883796367684,0.7965550880569614,-0.5235669365622521,-0.06451957927370161,2.005367955565576,-0.13004943068681987,0.4071872580090135,1.2754766519963308,-0.10026047369904781,-1.0605962385391174,-0.29789902166110077,1.894640524120123,-0.0906626205850269,0.8558248500703782,-0.06960638534880065,-0.13450917601585388,0.01214496698230505,-0.2542564570903778,-0.004252751357853413,0.0016212532063946128,-0.012824855744838715,1.0002365112304688,0.0,0.0,0.0,0.0,0.0,0.0,0.0,0.0
104,-0.4182227522119582,0.01433607476341714,-0.6606219637941122,-0.00515703979529826,-0.0008246982734691766,-0.0077032007975417205,0.995930324746251,-0.0572162357008392,0.7970231299688126,-0.522811120949496,-0.06444111131740986,2.0042254794688503,-0.13074884421880817,0.4058870610298711,1.279666159625079,-0.1003244220696825,-1.0622461103969822,-0.2976781502965358,1.8942819779935436,-0.09087607825567164,0.8552952915191422,-0.06959679353123215,-0.06897789239883423,0.01688939891755581,-0.13646821677684784,-0.008837341330945492,-0.00013781267625745386,-0.019613249227404594,-0.9938886165618896,0.0,0.0,0.0,0.0,0.0,0.0,0.0,0.0
105,-0.4182227522119582,0.01433607476341714,-0.6606219637941122,-0.00515703979529826,-0.0008246982734691766,-0.0077032007975417205,0.995930324746251,-0.057366545332453535,0.7974760545072687,-0.5220596898251685,-0.06436022025318304,2.0030968860610794,-0.13146797176677516,0.4045548546941578,1.283757008692684,-0.10038021744087099,-1.0639037622359582,-0.29746586902259387,1.8939262760630204,-0.09108454543128244,0.8547471889169315,-0.06958921364456438,-0.01644180528819561,0.027124453336000443,-0.031553760170936584,-0.008244751021265984,-0.006132477894425392,-0.023604098707437515,-0.9943963885307312,0.0,0.0,0.0,0.0,0.0,0.0,0.0,0.0
106,-0.4182227522119582,0.01433607476341714,-0.6606219637941122,-0.00515703979529826,-0.0008246982734691766,-0.0077032007975417205,0.995930324746251,-0.05744832335761648,0.7979142254654511,-0.5213143463991534,-0.06427799255070708,2.0019830642895715,-0.13220065686954968,0.40323146623263656,1.287798257947612,-0.10044072039626058,-1.0655728910991304,-0.29721577228949375,1.8935675019175113,-0.091261885778914,0.8542407087906941,-0.06958165086345705,-0.010735037736594677,0.03717408329248428,-0.006763693876564503,-0.006977474316954613,-0.023027781397104263,-0.019531704485416412,1.0008636713027954,0.0,0.0,0.0,0.0,0.0,0.0,0.0,0.0
107,-0.4182227522119582,0.01433607476341714,-0.6606219637941122,-0.00515703979529826,-0.0008246982734691766,-0.0077032007975417205,0.995930324746251,-0.057488366188871216,0.7983401012118653,-0.5205756382480147,-0.06419600481870273,2.0008851156707497,-0.13293864116900808,0.4019449752366501,1.2918227697726974,-0.10049522372344134,-1.0672519240805138,-0.2969872794497374,1.8932020581317135,-0.09146251650446574,0.8537173459669701,-0.06957381487956145,0.00409143278375268,0.05107950419187546,0.010681265965104103,-0.005558766890317202,-0.06027509272098541,-0.012668837793171406,0.9966908693313599,0.0,0.0,0.0,0.0,0.0,0.0,0.0,0.0
108,-0.4182227522119582,0.01433607476341714,-0.6606219637941122,-0.00515703979529826,-0.0008246982734691766,-0.0077032007975417205,0.995930324746251,-0.057489207934451,0.7987552386043064,-0.5198431306154145,-0.06411444598682019,1.9998029121144634,-0.13368118197156914,0.4006906247067035,1.2958231477280449,-0.10055393585227046,-1.0689419490353511,-0.29672372782755857,1.892834576328089,-0.09163689283080745,0.8532257341474996,-0.069566139530533,0.031177040189504623,0.09847576916217804,0.07188064604997635,-0.010791718028485775,-0.08010994642972946,-0.006427869666367769,0.9946514368057251,0.0,0.0,0.0,0.0,0.0,0.0,0.0,0.0
109,-0.4182227522119582,0.01433607476341714,-0.6606219637941122,-0.00515703979529826,-0.0008246982734691766,-0.0077032007975417205,0.995930324746251,-0.057457309774182216,0.7991594150125221,-0.5191171754821685,-0.06403313196242477,1.998736032452635,-0.1344292780370236,0.39946554579296906,1.2997939481180165,-0.10060610887731467,-1.0706414935881146,-0.2964844078503496,1.892461403917791,-0.09183826865400212,0.8527104984048731,-0.06955824229119197,0.03884269297122955,0.1159745305776596,0.11924123764038086,-0.011248269118368626,-0.0875563696026802,-0.002308707917109132,0.9995523691177368,0.0,0.0,0.0,0.0,0.0,0.0,0.0,0.0
110,-0.5899207134720087,-0.010885819692134868,-0.43018985091209416,-0.0014697637246930823,-0.0037708884901920536,-0.03858803044096665,0.9967217165147066,-0.05773309196512265,0.7995212199757238,-0.518412777878652,-0.06395584172477288,1.997677531208107,-0.13516662708712399,0.3983009802509214,1.3035653390814168,-0.10065710266250848,-1.072350928356158,-0.296238365166333,1.8920850281308221,-0.09203511283698725,0.8522008475138387,-0.0695505238960585,-0.589920699596405,-0.010885819792747498,-0.430189847946167,-0.00146976369433105,-0.003770888550207019,-0.0385880321264267,0.9967217445373535,0.0,0.0,0.0,0.0,0.0,0.0,0.0,0.0
111,-0.5899207134720087,-0.010885819692134868,-0.43018985091209416,-0.0014697637246930823,-0.0037708884901920536,-0.03858803044096665,0.9967217165147066,-0.05837778361516191,0.7997906411282191,-0.51775279159623,-0.0638877179154489,1.9966161201184704,-0.13587209215037102,0.39724905926027376,1.3069007397898194,-0.10070689690062222,-1.0740700921413555,-0.29598680116434817,1.891705435711461,-0.09222985419614436,0.851694005924974,-0.06954283392692676,-0.5529384613037109,-0.006290152203291655,-0.39673417806625366,-0.0013167153811082244,-0.0009098539594560862,-0.04177315533161163,0.9962814450263977,0.0,0.0,0.0,0.0,0.0,0.0,0.0,0.0
112,-0.5899207134720087,-0.010885819692134868,-0.43018985091209416,-0.0014697637246930823,-0.0037708884901920536,-0.03858803044096665,0.9967217165147066,-0.05911169975243769,0.7999886424920898,-0.5171263169936403,-0.06382445403992114,1.9955553750579673,-0.13656301053012532,0.3962815483461339,1.3099299608180874,-0.10075015595097156,-1.0757983536840097,-0.2957646649489835,1.8913204234816936,-0.09246509455088624,0.8511530707842944,-0.06953292785800382,-0.42236602306365967,0.007600516080856323,-0.32839494943618774,-0.0025268944445997477,0.0032469506841152906,-0.043280769139528275,0.9978606700897217,0.0,0.0,0.0,0.0,0.0,0.0,0.0,0.0
113,-0.5899207134720087,-0.010885819692134868,-0.43018985091209416,-0.0014697637246930823,-0.0037708884901920536,-0.03858803044096665,0.9967217165147066,-0.0597727061287855,0.8001349135567074,-0.5165234054995742,-0.06376295505884179,1.9944989267179365,-0.13725096970232584,0.39537795247762025,1.312744350463271,-0.1007924407047992,-1.0775358684027,-0.2955316870210005,1.890933063666174,-0.09268266433308756,0.8506244911655721,-0.06952483282321544,-0.2999855577945709,0.027799347415566444,-0.2577897310256958,-0.005714035592973232,-0.001824183389544487,-0.04025440663099289,0.9964919090270996,0.0,0.0,0.0,0.0,0.0,0.0,0.0,0.0
114,-0.5899207134720087,-0.010885819692134868,-0.43018985091209416,-0.0014697637246930823,-0.0037708884901920536,-0.03858803044096665,0.9967217165147066,-0.060278661544180254,0.800246072757047,-0.5159358078872016,-0.06370061696887437,1.993449915919798,-0.13794566641143233,0.3945235450109036,1.3154089501523818,-0.10083892882150536,-1.0792830395132544,-0.29525742040202263,1.8905455226668386,-0.09285052827778334,0.8501377754392053,-0.06951935073793959,-0.1582297384738922,0.08886177092790604,-0.10679370909929276,-0.008965233340859413,-0.005665265489369631,-0.03443315625190735,0.9995646476745605,0.0,0.0,0.0,0.0,0.0,0.0,0.0,0.0
115,-0.5899207134720087,-0.010885819692134868,-0.43018985091209416,-0.0014697637246930823,-0.0037708884901920536,-0.03858803044096665,0.9967217165147066,-0.060625296250213456,0.8003348898078203,-0.5153573590189824,-0.06363519953595985,1.9924107819602248,-0.13865546903862674,0.39370663550301954,1.3179707582666407,-0.10088426792323538,-1.0810396647253162,-0.29498596229745433,1.8901547104980023,-0.09304030840357251,0.8496379189717821,-0.06951107820607652,-0.09641491621732712,0.11911926418542862,-0.04866322875022888,-0.014292662963271141,-0.0029911284800618887,-0.0255952849984169,1.0009158849716187,0.0,0.0,0.0,0.0,0.0,0.0,0.0,0.0
116,-0.5899207134720087,-0.010885819692134868,-0.43018985091209416,-0.0014697637246930823,-0.0037708884901920536,-0.03858803044096665,0.9967217165147066,-0.060857780387171226,0.8004119463538404,-0.5147830731135601,-0.06356510376165363,1.9913836391388717,-0.13938560322760926,0.3929192280845,1.320461485026681,-0.10091784113502303,-1.0828040568600366,-0.29477138403938685,1.8897574357041327,-0.09328784577346656,0.8490822638198403,-0.06950201598092026,-0.06543156504631042,0.10791745781898499,-0.031224358826875687,-0.01714198850095272,-0.002077248180285096,-0.019767306745052338,1.0051283836364746,0.0,0.0,0.0,0.0,0.0,0.0,0.0,0.0
117,-0.5899207134720087,-0.010885819692134868,-0.43018985091209416,-0.0014697637246930823,-0.0037708884901920536,-0.03858803044096665,0.9967217165147066,-0.06100189169877029,0.8004857171214813,-0.5142089723192877,-0.0634891559845322,1.990370183072716,-0.14013914003855302,0.392154391555686,1.32290426631295,-0.10095576730384459,-1.0845778369510248,-0.2945183395202552,1.8893599369100862,-0.09349383410716162,0.8485632052710849,-0.06949424765317973,-0.020513692870736122,0.05780909210443497,-0.00650027533993125,-0.01165584847331047,0.0011329841800034046,-0.01413798052817583,1.0026428699493408,0.0,0.0,0.0,0.0,0.0,0.0,0.0,0.0
118,-0.5899207134720087,-0.010885819692134868,-0.43018985091209416,-0.0014697637246930823,-0.0037708884901920536,-0.03858803044096665,0.9967217165147066,-0.061076126511494654,0.8005608736517076,-0.5136328691618542,-0.06340590109604899,1.9893713524969974,-0.1409207284112033,0.3914084357799893,1.325313394083368,-0.10099257634657748,-1.0863603982254268,-0.2942615440538386,1.8889601155686213,-0.09369876335861868,0.8480451024147994,-0.06948656472260162,0.0013292159419506788,0.024648942053318024,0.013881620950996876,-0.005675258580595255,0.00161275127902627,-0.016321290284395218,1.0021570920944214,0.0,0.0,0.0,0.0,0.0,0.0,0.0,0.0
119,-0.5899207134720087,-0.010885819692134868,-0.43018985091209416,-0.0014697637246930823,-0.0037708884901920536,-0.03858803044096665,0.9967217165147066,-0.061105303836708404,0.8006423486635866,-0.5130525683879494,-0.06331455720105861,1.9883880319215657,-0.1417325825505513,0.39067786485443096,1.327700068207203,-0.10102825925910167,-1.0881516377961735,-0.29400169567493756,1.8885578884334224,-0.09390366712693483,0.8475268637213091,-0.06947889017622674,0.009219822473824024,0.017837347462773323,0.04532570019364357,-0.0023908463772386312,-0.0012724522966891527,-0.017654653638601303,1.000963807106018,0.0,0.0,0.0,0.0,0.0,0.0,0.0,0.0
120,-0.26078237164956336,0.09938434036707866,-0.4026458744072319,-0.009277113482834082,-0.007987259305180155,-0.015961341162755244,0.9997456912058591,-0.06125041579778338,0.800733215116104,-0.5124674721400866,-0.06321498120321992,1.98742070692874,-0.14257544622310905,0.38996013689639003,1.330070883961885,-0.10106272018624077,-1.0899514899526679,-0.2937394799791378,1.8881534236252826,-0.09410960455638061,0.8470079534368234,-0.06947120015434734,-0.2607823610305786,0.09938433766365051,-0.40264588594436646,-0.00927711371332407,-0.007987258955836296,-0.015961341559886932,0.9997456669807434,0.0,0.0,0.0,0.0,0.0,0.0,0.0,0.0
121,-0.26078237164956336,0.09938434036707866,-0.4026458744072319,-0.009277113482834082,-0.007987259305180155,-0.015961341162755244,0.9997456912058591,-0.06154139156385635,0.8008361201142364,-0.5118769351696018,-0.06310720833875023,1.986469759475851,-0.14344890251964956,0.3892534749706329,1.3324300482700262,-0.10109586803970613,-1.0917598843709524,-0.29347546068811425,1.887746885269963,-0.09431720895292471,0.8464880167982723,-0.06946349433598242,-0.2351875603199005,0.045815061777830124,-0.34447652101516724,-0.008670970797538757,-0.00504632294178009,-0.014059044420719147,1.0009182691574097,0.0,0.0,0.0,0.0,0.0,0.0,0.0,0.0
122,-0.26078237164956336,0.09938434036707866,-0.4026458744072319,-0.009277113482834082,-0.007987259305180155,-0.015961341162755244,0.9997456912058591,-0.061834055564258215,0.8009543805407296,-0.5112791641708739,-0.06299128804028967,1.9855356048255846,-0.14435150440117003,0.38855643541980167,1.3347810701995344,-0.10112767690798838,-1.0935767210956384,-0.29321001581574324,1.8873382610150078,-0.09452645777315968,0.845966658815549,-0.06945578731416754,-0.12700437009334564,0.018624838441610336,-0.14958183467388153,-0.005935718305408955,-0.0033028298057615757,-0.014124603942036629,0.9976632595062256,0.0,0.0,0.0,0.0,0.0,0.0,0.0,0.0
123,-0.26078237164956336,0.09938434036707866,-0.4026458744072319,-0.009277113482834082,-0.007987259305180155,-0.015961341162755244,0.9997456912058591,-0.06203597136495702,0.801088972373439,-0.5106736024665894,-0.06286722385644969,1.9846181218314174,-0.14528280909301397,0.38786814783698104,1.3371258015975371,-0.10115827452994573,-1.0954017703493677,-0.2929402993684799,1.8869277619096514,-0.0947284510256039,0.8454494372080552,-0.06944871394488429,-0.03179439157247543,0.020913099870085716,-0.01012774184346199,-0.006841868627816439,-0.004656662233173847,-0.017109641805291176,1.0044811964035034,0.0,0.0,0.0,0.0,0.0,0.0,0.0,0.0
124,-0.26078237164956336,0.09938434036707866,-0.4026458744072319,-0.009277113482834082,-0.007987259305180155,-0.015961341162755244,0.9997456912058591,-0.06213872340248498,0.8012414113075995,-0.5100600986994483,-0.06273587018156458,1.9837172644249257,-0.1462396595226705,0.3871879221621448,1.3394644889996763,-0.10118535685089128,-1.0972327117524439,-0.2926648584715785,1.8865255967249122,-0.09492993850418344,0.8449113792428861,-0.06944199867337957,0.0065884822979569435,0.022081604227423668,0.026918690651655197,-0.007904142141342163,-0.009207461960613728,-0.014266474172472954,1.0010148286819458,0.0,0.0,0.0,0.0,0.0,0.0,0.0,0.0
125,-0.26078237164956336,0.09938434036707866,-0.4026458744072319,-0.009277113482834082,-0.007987259305180155,-0.015961341162755244,0.9997456912058591,-0.06216862940785474,0.8014120462584461,-0.5094388218347324,-0.06259777534813506,1.982832810797115,-0.14721975972065215,0.3865167326347722,1.3417951994375965,-0.10120162794815743,-1.099071053321332,-0.2924536247135916,1.8861157646804683,-0.09520640288244792,0.8443168225370861,-0.06943137244267997,0.029409024864435196,0.018767237663269043,0.05978059396147728,-0.007975454442203045,-0.005316370632499456,-0.007155367638915777,1.0058872699737549,0.0,0.0,0.0,0.0,0.0,0.0,0.0,0.0
126,-0.26078237164956336,0.09938434036707866,-0.4026458744072319,-0.009277113482834082,-0.007987259305180155,-0.015961341162755244,0.9997456912058591,-0.06213825176944729,0.8016010772988443,-0.5088096487676742,-0.0624529317850671,1.981964481535577,-0.1482227335535375,0.3858545207786938,1.3441184045823993,-0.10122314785135511,-1.1009178269766118,-0.29219549835268466,1.885705345948225,-0.09541246141641872,0.8437808337573893,-0.06942551172398756,0.06328164786100388,0.008278419263660908,0.12102086842060089,-0.003174858633428812,0.0009709240985102952,-0.0011080448748543859,1.0093096494674683,0.0,0.0,0.0,0.0,0.0,0.0,0.0,0.0
127,-0.26078237164956336,0.09938434036707866,-0.4026458744072319,-0.009277113482834082,-0.007987259305180155,-0.015961341162755244,0.9997456912058591,-0.062057344209024076,0.8018090164726022,-0.5081723589189655,-0.06230162931438707,1.981112000639058,-0.14924701536534385,0.3851999701620189,1.3464357496362047,-0.10124976226100578,-1.1027734967673872,-0.2919067051810795,1.8852934059627184,-0.09559800521343981,0.8432712894989197,-0.06941883554778383,0.08127531409263611,0.0037621420342475176,0.1552124321460724,-0.0012399470433592796,-0.001475695869885385,-0.00318824197165668,1.0050580501556396,0.0,0.0,0.0,0.0,0.0,0.0,0.0,0.0
128,-0.26078237164956336,0.09938434036707866,-0.4026458744072319,-0.009277113482834082,-0.007987259305180155,-0.015961341162755244,0.9997456912058591,-0.06194539621991273,0.8020344049026487,-0.5075276653704837,-0.062143802678075226,1.980274731639149,-0.15029281119700363,0.38455340012592276,1.3487464457575757,-0.10127066979253593,-1.1046366281870659,-0.2916490529582148,1.884877028019604,-0.09582185048295971,0.8427308356053225,-0.06941084667343524,0.08235179632902145,-0.0028353098314255476,0.17339329421520233,0.0012951019452884793,-0.005953769199550152,-0.006770384032279253,1.0047810077667236,0.0,0.0,0.0,0.0,0.0,0.0,0.0,0.0
129,-0.26078237164956336,0.09938434036707866,-0.4026458744072319,-0.009277113482834082,-0.007987259305180155,-0.015961341162755244,0.9997456912058591,-0.06183034457935532,0.8022752721324856,-0.5068765339866186,-0.061979384629206144,1.9794519349577915,-0.15136040099248205,0.38391560161085986,1.3510490096828949,-0.10129091128023672,-1.1065076172260904,-0.29138966940451067,1.8844582113471091,-0.09604475524080706,0.8421919732715843,-0.06940311744308218,0.059717051684856415,-0.009394029155373573,0.17436327040195465,0.004465731326490641,-0.023908007889986038,-0.0138948829844594,1.0019816160202026,0.0,0.0,0.0,0.0,0.0,0.0,0.0,0.0
130,-0.09555851591038711,0.17952342278909672,-0.2238336954979897,-0.002262901735120823,-0.0008626543321329228,0.019199255763797718,0.9945279880673885,-0.061803154059536965,0.8025319920091603,-0.506219637207393,-0.061809428393922256,1.978643336236728,-0.1524465491291911,0.3832866652460984,1.3533423218937861,-0.10131045722648088,-1.108386376875518,-0.2911289926783683,1.8840370651857,-0.09626767568835327,0.8416535906720812,-0.06939547256467168,-0.0955585166811943,0.17952342331409454,-0.22383369505405426,-0.002262901747599244,-0.000862654356751591,0.019199255853891373,0.9945279955863953,0.0,0.0,0.0,0.0,0.0,0.0,0.0,0.0
131,-0.09555851591038711,0.17952342278909672,-0.2238336954979897,-0.002262901735120823,-0.0008626543321329228,0.019199255763797718,0.9945279880673885,-0.06185629604933687,0.8028048116713892,-0.5055573608592445,-0.061634738574898824,1.9778486246222662,-0.15354867875435846,0.3826665360289431,1.3556259026562134,-0.10132925937413013,-1.1102728340193673,-0.290867388904628,1.8836137196710463,-0.09649125891657931,0.8411149794255142,-0.0693878542994557,-0.054999783635139465,0.16448314487934113,-0.09200545400381088,-0.0012813566718250513,-0.0014349092962220311,0.009663883596658707,0.9987115263938904,0.0,0.0,0.0,0.0,0.0,0.0,0.0,0.0
132,-0.09555851591038711,0.17952342278909672,-0.2238336954979897,-0.002262901735120823,-0.0008626543321329228,0.019199255763797718,0.9945279880673885,-0.06190505199548389,0.8030922396902828,-0.5048900546784826,-0.061455222472732954,1.9770671322318603,-0.15466674902582972,0.38205517772403363,1.3578997259721386,-0.10134725967893284,-1.1121669255455628,-0.2906051734117239,1.8831883255726842,-0.09671596487975298,0.840575701149165,-0.06938024671163935,-0.00507360277697444,0.1664990484714508,-0.02482895739376545,-0.0006942364270798862,0.00016060298366937786,0.007056062575429678,0.9995237588882446,0.0,0.0,0.0,0.0,0.0,0.0,0.0,0.0
133,-0.09555851591038711,0.17952342278909672,-0.2238336954979897,-0.002262901735120823,-0.0008626543321329228,0.019199255763797718,0.9945279880673885,-0.06191635144017572,0.8033926730799071,-0.5042183288730365,-0.06127094818152548,1.976298199743329,-0.15580031604220038,0.3814528735512362,1.3601630072947521,-0.10136444431701785,-1.1140685730014428,-0.2903425484917224,1.8827608969088376,-0.09694183571909681,0.8400353585755268,-0.06937264830528558,0.025702357292175293,0.17743726074695587,0.0036136023700237274,-0.0019236286170780659,-0.0006718191434629261,0.007296928204596043,0.9984569549560547,0.0,0.0,0.0,0.0,0.0,0.0,0.0,0.0
134,-0.09555851591038711,0.17952342278909672,-0.2238336954979897,-0.002262901735120823,-0.0008626543321329228,0.019199255763797718,0.9945279880673885,-0.061879935706179376,0.8037052908541078,-0.5035425246729157,-0.06108226316269626,1.9755413589520603,-0.15694786164524713,0.38086044652673223,1.3624141525854774,-0.10138077496942828,-1.1159777225851453,-0.2900797253127298,1.8823315600978725,-0.09716912192903095,0.8394938157580988,-0.06936505602423124,0.06104886159300804,0.20405521988868713,0.006629368290305138,-0.006513422820717096,-0.000627867819275707,0.0081864008679986,0.9991584420204163,0.0,0.0,0.0,0.0,0.0,0.0,0.0,0.0
135,-0.09555851591038711,0.17952342278909672,-0.2238336954979897,-0.002262901735120823,-0.0008626543321329228,0.019199255763797718,0.9945279880673885,-0.061778560174361015,0.8040287527215548,-0.5028632923057783,-0.060889477633773975,1.9747960343436535,-0.1581081804315521,0.38027817603266073,1.3646522379151433,-0.10139623964403077,-1.1178943093111315,-0.2898168611277049,1.8819003577048115,-0.09739784556848895,0.8389509121869068,-0.06935747005878057,0.11703728884458542,0.23790182173252106,0.003704556031152606,-0.010226084850728512,0.002260698936879635,0.011339506134390831,0.9977531433105469,0.0,0.0,0.0,0.0,0.0,0.0,0.0,0.0
136,-0.09555851591038711,0.17952342278909672,-0.2238336954979897,-0.002262901735120823,-0.0008626543321329228,0.019199255763797718,0.9945279880673885,-0.06159411778666116,0.8043612997502657,-0.5021815197016622,-0.06069281866818702,1.9740615505478303,-0.15928042377618326,0.3797054294261135,1.3668773700093373,-0.10141083118126605,-1.119818265611015,-0.2895540873500098,1.8814673111667628,-0.09762791981058905,0.8384065317975334,-0.06934989682373092,0.17697973549365997,0.23724153637886047,0.016053665429353714,-0.012488389387726784,0.0036196073051542044,0.012989294715225697,1.0026183128356934,0.0,0.0,0.0,0.0,0.0,0.0,0.0,0.0
137,-0.09555851591038711,0.17952342278909672,-0.2238336954979897,-0.002262901735120823,-0.0008626543321329228,0.019199255763797718,0.9945279880673885,-0.061317716603526716,0.8046990768498411,-0.5014982989470285,-0.06049111589777913,1.9733368846348096,-0.16046805020591992,0.3791412785125578,1.3690888747816037,-0.10142451646038414,-1.1217495463580227,-0.2892915797596507,1.8810325544707416,-0.09785955105758669,0.8378607340568068,-0.06934232836072383,0.23487935960292816,0.1458311676979065,0.04497194290161133,-0.005510108545422554,0.0067922803573310375,0.011675550602376461,1.0054377317428589,0.0,0.0,0.0,0.0,0.0,0.0,0.0,0.0
138,-0.09555851591038711,0.17952342278909672,-0.2238336954979897,-0.002262901735120823,-0.0008626543321329228,0.019199255763797718,0.9945279880673885,-0.06094553006480539,0.8050395009789965,-0.5008141574347026,-0.06028346954839603,1.9726211843443597,-0.16167294059132317,0.37858233928417606,1.371284731141423,-0.1014373231812274,-1.123688075851678,-0.2890293965798658,1.880596033798868,-0.09809248541346317,0.8373133774130749,-0.06933477288705242,0.29373180866241455,0.03607998415827751,0.057752132415771484,-0.00019629139569588006,0.005124010611325502,0.0082961181178689,1.0018259286880493,0.0,0.0,0.0,0.0,0.0,0.0,0.0,0.0
139,-0.09555851591038711,0.17952342278909672,-0.2238336954979897,-0.002262901735120823,-0.0008626543321329228,0.019199255763797718,0.9945279880673885,-0.06052323308588777,0.8053810223675053,-0.5001297087090079,-0.06006945314440145,1.9719137272924288,-0.16289626044841868,0.3780252314647388,1.3734626255352493,-0.10144926689528783,-1.1256337950519861,-0.28876760958410613,1.8801577638138138,-0.09832667900933587,0.8367644516667226,-0.06932723148187259,0.2603102922439575,-0.012852473184466362,0.031461670994758606,0.0029183849692344666,-0.005026864353567362,0.0014193771639838815,0.9978458881378174,0.0,0.0,0.0,0.0,0.0,0.0,0.0,0.0
140,-0.15181412079095846,-0.009678827923893962,-0.25432052988076215,0.00042694296993767145,-0.08729801058881727,-0.0013223670714447577,1.0012100043485166,-0.06030429295943672,0.8057209792412502,-0.4994465226030071,-0.059848892962002166,1.9712135529088284,-0.16413904346715044,0.37746737579650685,1.3756200347343224,-0.10146024481281042,-1.127586816032978,-0.2885098674730216,1.879717604868712,-0.09857259321493501,0.8362077106157577,-0.06931894990564914,-0.15181411802768707,-0.009678827598690987,-0.25432053208351135,0.0004269429773557931,-0.08729801326990128,-0.0013223671121522784,1.0012099742889404,0.0,0.0,0.0,0.0,0.0,0.0,0.0,0.0
141,-0.15181412079095846,-0.009678827923893962,-0.25432052988076215,0.00042694296993767145,-0.08729801058881727,-0.0013223670714447577,1.0012100043485166,-0.06031650203225122,0.8060581490317384,-0.498765286038996,-0.05962180974785112,1.9705200088688422,-0.16540153727634896,0.3769066396723547,1.3777558103571064,-0.10147049227721142,-1.1295469404244174,-0.2882507793940956,1.8792759239751369,-0.09881593956265208,0.835652028749144,-0.06931081914343568,-0.10550705343484879,-0.003851646091789007,-0.12649741768836975,-0.001728674629703164,-0.07852967828512192,-0.005143187940120697,1.0009773969650269,0.0,0.0,0.0,0.0,0.0,0.0,0.0,0.0
142,-0.15181412079095846,-0.009678827923893962,-0.25432052988076215,0.00042694296993767145,-0.08729801058881727,-0.0013223670714447577,1.0012100043485166,-0.06037606252788001,0.806393784377589,-0.4980851201970031,-0.05938834393643029,1.9698330134456135,-0.16668317884421252,0.3763417283568944,1.3798699600803874,-0.10148491905076105,-1.1315145896067293,-0.28795530574302125,1.8788342594574452,-0.09901037054149327,0.8351337710690853,-0.06930557467026396,-0.024595418944954872,0.006178839132189751,0.0074086179956793785,-0.004642422776669264,-0.05912425369024277,-0.00535548897460103,1.0032089948654175,0.0,0.0,0.0,0.0,0.0,0.0,0.0,0.0
143,-0.15181412079095846,-0.009678827923893962,-0.25432052988076215,0.00042694296993767145,-0.08729801058881727,-0.0013223670714447577,1.0012100043485166,-0.06040528550797238,0.8067286813604895,-0.49740521380706454,-0.05914825424896465,1.9691524037233756,-0.1679846681039218,0.37577053198091764,1.3819575221339873,-0.10149329216588968,-1.133489044404614,-0.2877030563574546,1.8783890319045882,-0.0992722738019594,0.8345653658263963,-0.06929602759471909,0.015489153563976288,0.004557082895189524,0.13549162447452545,-0.0054315850138664246,-0.024636317044496536,-0.003116529667750001,1.0028711557388306,0.0,0.0,0.0,0.0,0.0,0.0,0.0,0.0
144,-0.15181412079095846,-0.009678827923893962,-0.25432052988076215,0.00042694296993767145,-0.08729801058881727,-0.0013223670714447577,1.0012100043485166,-0.06036315210693538,0.8070627063556399,-0.49672414400305986,-0.05889935578226888,1.9684776600672558,-0.16931344672588447,0.37518727984851746,1.383993487949946,-0.10150061666972617,-1.1354704229498445,-0.2874488013244908,1.8779425387644644,-0.09952591068025163,0.8340005493919366,-0.06928805129059483,0.09582552313804626,0.004498464986681938,0.3420565128326416,-0.004213195759803057,-0.005715953651815653,-0.005676045082509518,1.001427412033081,0.0,0.0,0.0,0.0,0.0,0.0,0.0,0.0
145,-0.15181412079095846,-0.009678827923893962,-0.25432052988076215,0.00042694296993767145,-0.08729801058881727,-0.0013223670714447577,1.0012100043485166,-0.06021173726121612,0.8073958600191543,-0.49604035027258875,-0.05863944787094565,1.9678082918501856,-0.170677087646697,0.3745881530133576,1.3859528091907243,-0.10151210609863173,-1.1374591562609726,-0.28715738895054005,1.877496083122257,-0.09972725253512242,0.8334749874528004,-0.06928295460256807,0.18229693174362183,0.0036062721628695726,0.5289814472198486,-0.0020345577504485846,-0.0016181720420718193,-0.010083970613777637,1.0048251152038574,0.0,0.0,0.0,0.0,0.0,0.0,0.0,0.0
146,-0.15181412079095846,-0.009678827923893962,-0.25432052988076215,0.00042694296993767145,-0.08729801058881727,-0.0013223670714447577,1.0012100043485166,-0.05994594904027306,0.8077278592545143,-0.49535312001223647,-0.058367379994752715,1.9671438278611066,-0.17207955082634555,0.3739705407956877,1.3878205944051727,-0.10152284382803334,-1.1394550432412534,-0.28687170898179476,1.8770477281932656,-0.09994607133474752,0.8329387037226061,-0.06927599233534781,0.23999494314193726,-0.005767428781837225,0.5486305356025696,0.0002039706741925329,-0.003924624063074589,-0.010142668150365353,1.0049707889556885,0.0,0.0,0.0,0.0,0.0,0.0,0.0,0.0
147,-0.15181412079095846,-0.009678827923893962,-0.25432052988076215,0.00042694296993767145,-0.08729801058881727,-0.0013223670714447577,1.0012100043485166,-0.05959017143506112,0.8080563418124054,-0.4946633498959015,-0.05808285588078766,1.966483531115411,-0.17352177648214215,0.3733332986864183,1.389588578295802,-0.10152713203860315,-1.1414574711621976,-0.28662969203300315,1.876596095240965,-0.10022768713809364,0.8323541048273037,-0.06926594508508835,0.26773178577423096,-0.002023050095885992,0.4053069055080414,-0.0017177251866087317,-0.01956501603126526,-0.00813442375510931,1.005981206893921,0.0,0.0,0.0,0.0,0.0,0.0,0.0,0.0
148,-0.15181412079095846,-0.009678827923893962,-0.25432052988076215,0.00042694296993767145,-0.08729801058881727,-0.0013223670714447577,1.0012100043485166,-0.05918760428177235,0.8083765028697247,-0.4939731686267733,-0.05778542547564182,1.9658262432101388,-0.175005407071896,0.37267539446444137,1.39124948912369,-0.10153020228497389,-1.1434664092809241,-0.28638115658794855,1.87614367265836,-0.10048387626067716,0.8317828040250338,-0.06925919665282503,0.25650790333747864,-0.004959806799888611,0.27156344056129456,-0.0009909935761243105,-0.039546918123960495,-0.006807046942412853,1.0057107210159302,0.0,0.0,0.0,0.0,0.0,0.0,0.0,0.0
149,-0.15181412079095846,-0.009678827923893962,-0.25432052988076215,0.00042694296993767145,-0.08729801058881727,-0.0013223670714447577,1.0012100043485166,-0.05878821950066905,0.8086867016521759,-0.4932834487876231,-0.05747486027890336,1.965171331479906,-0.17653165059116538,0.371995119670069,1.392798289327286,-0.10154312407776594,-1.145483505322373,-0.28606765099560943,1.87569179993916,-0.10067208471929695,0.8312706914985873,-0.06925330188555538,0.21688774228096008,-0.020954348146915436,0.2005617767572403,0.0039289710111916065,-0.04628065973520279,-0.0071530151180922985,1.0007272958755493,0.0,0.0,0.0,0.0,0.0,0.0,0.0,0.0
150,0.36115626682037105,0.1452334488162994,0.2580005505557059,-0.07057144552801528,-0.0007965289035693213,-0.020472997142218563,-1.0010419197047948,-0.058330991736552554,0.8089899358102893,-0.49259178191023206,-0.057149648194877084,1.964518057544394,-0.17810826919318468,0.371255113192443,1.394249632173688,-0.10154417819844327,-1.147506466149016,-0.28583384656006633,1.875235783225489,-0.10096534403402087,0.8306757637866041,-0.06924332645359983,0.36115625500679016,0.14523345232009888,0.25800055265426636,-0.07057144492864609,-0.0007965288823470473,-0.020472997799515724,-1.0010418891906738,0.0,0.0,0.0,0.0,0.0,0.0,0.0,0.0
151,0.36115626682037105,0.1452334488162994,0.2580005505557059,-0.07057144552801528,-0.0007965289035693213,-0.020472997142218563,-1.0010419197047948,-0.05776099090131555,0.8092891367951842,-0.4918954576925934,-0.056807911644610874,1.9638659133305243,-0.1797432684668112,0.3704269604014007,1.3956067858466752,-0.10154934556418284,-1.1495364298478952,-0.2855580636808526,1.8747801479219734,-0.10119069102568566,0.8301286791741463,-0.06923796329433415,0.4183696210384369,0.15006092190742493,0.32894256711006165,-0.05756830424070358,0.0013441761257126927,-0.017295097932219505,-0.9994788765907288,0.0,0.0,0.0,0.0,0.0,0.0,0.0,0.0
152,0.36115626682037105,0.1452334488162994,0.2580005505557059,-0.07057144552801528,-0.0007965289035693213,-0.020472997142218563,-1.0010419197047948,-0.05713200304402476,0.809582695621637,-0.4911954690731327,-0.05645003447095717,1.9632146506130193,-0.18143468339783342,0.36952226212668127,1.3968561570415403,-0.10155899537089574,-1.1515738618226348,-0.2852525219865477,1.8743238548755392,-0.1013884729840695,0.8296068592466308,-0.06923230637230435,0.3880869448184967,0.1269342601299286,0.35858801007270813,-0.049570076167583466,0.0007006673840805888,-0.016126347705721855,-1.002841591835022,0.0,0.0,0.0,0.0,0.0,0.0,0.0,0.0
153,0.36115626682037105,0.1452334488162994,0.2580005505557059,-0.07057144552801528,-0.0007965289035693213,-0.020472997142218563,-1.0010419197047948,-0.056508239475031384,0.8098688238615288,-0.4904929972335364,-0.05607657645971108,1.9625639397488537,-0.183180157699055,0.3685506937792436,1.3979881860015395,-0.10155725438670328,-1.1536171887310231,-0.28502857714076213,1.8738634117989326,-0.10170062273105063,0.828998041984729,-0.06922126714295514,0.34793776273727417,0.11330051720142365,0.3673807680606842,-0.04414088651537895,-0.004932360723614693,-0.015364916063845158,-0.9973136782646179,0.0,0.0,0.0,0.0,0.0,0.0,0.0,0.0
154,0.36115626682037105,0.1452334488162994,0.2580005505557059,-0.07057144552801528,-0.0007965289035693213,-0.020472997142218563,-1.0010419197047948,-0.055931651911744165,0.8101459287719582,-0.4897891844163516,-0.05568827377276108,1.961913461072482,-0.18497674573773007,0.36751981624802305,1.3989967518102007,-0.10155947541848032,-1.1556673522920684,-0.28476093905016275,1.8734035192554739,-0.1019379444209336,0.8284405925053204,-0.06921569603484123,0.2918030619621277,0.07317857444286346,0.3582400679588318,-0.032952260226011276,-0.011346976272761822,-0.011794627644121647,-0.9979098439216614,0.0,0.0,0.0,0.0,0.0,0.0,0.0,0.0
155,0.36115626682037105,0.1452334488162994,0.2580005505557059,-0.07057144552801528,-0.0007965289035693213,-0.020472997142218563,-1.0010419197047948,-0.05542753666133481,0.8104126082125594,-0.48908505935306684,-0.05528575298281239,1.9612629021692727,-0.1868218173739156,0.36643545986172027,1.3998905344718626,-0.10156616377727555,-1.1577250001934247,-0.28446603677850285,1.8729427941322867,-0.10215475921993013,0.827904264191109,-0.06920927482050489,0.23647768795490265,0.045369215309619904,0.33463576436042786,-0.023129964247345924,-0.01539519801735878,-0.008321343921124935,-0.9998517632484436,0.0,0.0,0.0,0.0,0.0,0.0,0.0,0.0
156,0.36115626682037105,0.1452334488162994,0.2580005505557059,-0.07057144552801528,-0.0007965289035693213,-0.020472997142218563,-1.0010419197047948,-0.05499892251140433,0.810667021131232,-0.4883817664354747,-0.05486897646136761,1.9606117886669934,-0.18871526226095173,0.3652999871607357,1.400693216618782,-0.10156660725895533,-1.159788709810745,-0.28420951711029313,1.872479755867107,-0.1024178521525318,0.8273300655453653,-0.06920147150517453,0.1973656862974167,0.02297019585967064,0.3018595576286316,-0.015153664164245129,-0.017270084470510483,-0.005987913813441992,-0.9967443346977234,0.0,0.0,0.0,0.0,0.0,0.0,0.0,0.0
157,0.36115626682037105,0.1452334488162994,0.2580005505557059,-0.07057144552801528,-0.0007965289035693213,-0.020472997142218563,-1.0010419197047948,-0.054643584564933595,0.8109075845916658,-0.4876803419526992,-0.05443796439267168,1.9599597155767547,-0.19065693360789773,0.36411540047857827,1.4014182228212189,-0.10156596560914505,-1.1618589155976227,-0.28395524176774734,1.8720154234845863,-0.10268063837037521,0.8267545870682615,-0.06919398639643669,0.15306127071380615,0.014885838143527508,0.24662891030311584,-0.010982582345604897,-0.025292089208960533,-0.00482435105368495,-0.9994611740112305,0.0,0.0,0.0,0.0,0.0,0.0,0.0,0.0
